!!!!SEGMENT: pl-cz--iii-351--001-006_koperski-maksymilian--missa-solemnis-ex-b-sanctus.krn
!!!cenid: 18xx:901
!!!COM: Koperski, Maksymilian
!!!COM-rismID: pe30060120
!!!CDT: 1812-1886
!!!CNT:
!!!OPR: Missa Solemnis ex B
!!!OTL: Sanctus
!!!OMV: 006
!!!PDT: 1840
!!!AGN: Sacred; Mass
!!!SMS-siglum: PL-CZ
!!!SMS-shelfmark: III-351
!!!SMS-shelfwork: 001-006 M
!!!SMS-variant:
!!!SMS-altvar:
!!!NIFC-rismSourceID: 300000600
!!!NIFC-rismChildID: 300000600
!!!NIFC-islandoraID: pl-cz:37861
!!!URL-pdf-islandora: https://repozytorium.nifc.pl/islandora/object/pl-cz%3A37861/datastream/PDF/view
!!!URL-scan: https://polish.musicsources.pl/pl/lokalizacje/galeria/rekopisy/6911/1 @EN{Scan on Polish Music Sources Website} @PL{Skany w portalu Dziedzictwo Muzyki Polskiej w otwartym dostępie}
!!!IIIF:
!!!ONB-nifc: UWAGA: części Mszy: Kyrie, Gloria, Credo, Et incarnatus, Et resurrexit, Sanctus, Benedictus, Agnus Dei
!!!AIN: 1 alto 2 clars 2 cor 6 empty 1 fagot 1 organ 1 tenor 1 viola 2 violn 1 vox
!!!key:
**kern	**fba	**dynam	**kern	**dynam	**kern	**dynam	**kern	**dynam	**kern	**dynam	**kern	**text	**dynam	**kern	**text	**dynam	**kern	**text	**dynam	**kern	**text	**dynam	**kern	**dynam	**kern	**dynam	**kern	**dynam	**kern	**dynam	**kern	**dynam	**kern	**dynam	**kern	**dynam	**kern	**dynam	**kern	**dynam
*part18	*part18	*part18	*part17	*part17	*part16	*part16	*part15	*part15	*part14	*part14	*part13	*part13	*part13	*part12	*part12	*part12	*part11	*part11	*part11	*part10	*part10	*part10	*part9	*part9	*part8	*part8	*part7	*part7	*part6	*part6	*part5	*part5	*part4	*part4	*part3	*part3	*part2	*part2	*part1	*part1
*staff18	*	*	*staff17	*	*staff16	*	*staff15	*	*staff14	*	*staff13	*staff13	*	*staff12	*staff12	*	*staff11	*staff11	*	*staff10	*staff10	*	*staff9	*	*staff8	*	*staff7	*	*staff6	*	*staff5	*	*staff4	*	*staff3	*	*staff2	*	*staff1	*
*Iorgan	*	*	*Iempty	*	*Iviola	*	*Ivioln	*	*Ivioln	*	*Iempty	*	*	*Itenor	*	*	*Ialto	*	*	*Ivox	*	*	*Iempty	*	*Iempty	*	*Iempty	*	*Icor	*	*Icor	*	*Ifagot	*	*Iclars	*	*Iclars	*	*Iempty	*
*I"Organ.	*	*	*I"Violone et Violoncello	*	*I"Alto Viola	*	*I"Violin 2do	*	*I"Violin 1mo	*	*I"Bas	*	*	*I"Tenor.	*	*	*I"Alt.	*	*	*I"Cant.	*	*	*I"Tympan B.F.	*	*I"Clarino 2do in B	*	*I"Clarino 1mo in B.	*	*I"Corno 2do in B	*	*I"Corno 1mo in B	*	*I"Fagotto	*	*I"Clarinetto 2do in B.	*	*I"Clarinetto 1mo in B.	*	*I"flaut	*
*I'Org.	*	*	*I'Vne et Vc.	*	*I'Va	*	*I'Vn II	*	*I'Vn I	*	*I'B.	*	*	*I'T.	*	*	*I'A.	*	*	*I'C.	*	*	*I'Timp.	*	*I'Tr-ba 2 in B	*	*I'Tr-ba 1 in B	*	*I'C. 2 in B	*	*I'C. 1 in B	*	*I'Fag.	*	*I'Cl. 2 in B	*	*I'Cl. 1 in B	*	*I'Fl.	*
*ICklav	*	*	*ICstr	*	*ICstr	*	*ICstr	*	*ICstr	*	*ICvox	*	*	*ICvox	*	*	*ICvox	*	*	*ICvox	*	*	*ICidio	*	*ICbras	*	*ICbras	*	*ICbras	*	*ICbras	*	*ICww	*	*ICww	*	*ICww	*	*ICww	*
*clefF4	*	*	*clefF4	*	*clefC3	*	*clefG2	*	*clefG2	*	*clefF4	*	*	*clefC4	*	*	*clefC3	*	*	*clefC1	*	*	*clefF4	*	*clefG2	*	*clefG2	*	*clefG2	*	*clefG2	*	*clefF4	*	*clefG2	*	*clefG2	*	*clefG2	*
*	*	*	*	*	*	*	*	*	*	*	*	*	*	*	*	*	*	*	*	*	*	*	*	*	*ITrd5c9	*	*ITrd-2c-3	*	*ITrd-2c-3	*	*ITrd5c9	*	*	*	*ITrd1c2	*	*ITrd1c2	*	*	*
*k[b-e-a-]	*	*	*k[b-a-e-]	*	*k[b-e-a-]	*	*k[b-e-a-]	*	*k[b-e-a-]	*	*k[b-e-a-]	*	*	*k[b-e-a-]	*	*	*k[b-e-a-]	*	*	*k[e-b-a-]	*	*	*k[b-e-a-]	*	*k[b-e-a-]	*	*k[b-e-a-]	*	*k[b-e-a-]	*	*k[b-e-a-]	*	*k[b-e-a-]	*	*k[b-e-a-]	*	*k[b-e-a-]	*	*k[b-e-a-]	*
*E-:	*	*	*E-:	*	*E-:	*	*E-:	*	*E-:	*	*E-:	*	*	*E-:	*	*	*E-:	*	*	*E-:	*	*	*E-:	*	*	*	*	*	*	*	*	*	*E-:	*	*E-:	*	*E-:	*	*E-:	*
*M3/4	*	*	*M3/4	*	*M3/4	*	*M3/4	*	*M3/4	*	*M3/4	*	*	*M3/4	*	*	*M3/4	*	*	*M3/4	*	*	*M3/4	*	*M3/4	*	*M3/4	*	*M3/4	*	*M3/4	*	*M3/4	*	*M3/4	*	*M3/4	*	*M3/4	*
*	*	*below	*	*	*	*	*	*below	*	*below	*	*	*	*	*	*	*	*	*	*	*	*	*	*	*	*	*	*	*	*	*	*	*	*	*	*	*	*	*	*
=1	=1	=1	=1	=1	=1	=1	=1	=1	=1	=1	=1	=1	=1	=1	=1	=1	=1	=1	=1	=1	=1	=1	=1	=1	=1	=1	=1	=1	=1	=1	=1	=1	=1	=1	=1	=1	=1	=1	=1	=1
*	*	*	*	*	*	*	*	*	*	*	*	*	*	*	*	*	*2\right	*	*	*	*	*	*	*	*	*	*	*	*	*	*	*	*clefC4	*	*	*	*	*	*	*
!	!	!	!LO:TX:t=P:all\right: global:problem	!	!LO:TX:a:rj:t=Adagio	!	!LO:TX:a:t=Adagio	!	!LO:TX:a:t=Adagio	!	!	!	!	!	!	!	!	!	!	!LO:TX:t=P::problem=kolejność znaków przykluczowych inna&colon; es-b-as	!	!	!	!	!LO:TX:a:rj:t=adagio	!	!	!	!LO:TX:a:rj:t=adagio	!	!LO:TX:a:rj:t=adagio	!	!LO:TX:a:rj:t=adagio	!	!	!	!LO:TX:a:rj:t=adagio	!	!LO:TX:a:rj:t=adagio	!
!LO:TX:t=P:all\right: global:problem	!	!	!LO:TX:t=P::problem=kolejność znaków przykluczowych inna&colon; b-as-es	!LO:DY:rj	!LO:TX:t=P:all\right: global:problem	!LO:DY:rj	!LO:TX:t=P:all\right: global:problem	!LO:DY:rj	!LO:TX:t=P:all\right: global:problem	!LO:DY:rj	!LO:TX:t=P:all\right: global:problem	!	!	!LO:TX:t=P:all\right: global:problem	!	!LO:DY:a:rj	!LO:TX:t=P:all\right: global:problem	!	!LO:DY:a	!LO:TX:t=P:all\right: global:problem	!	!LO:DY:a	!LO:TX:t=P:problem=brak znaków przykluczowych, jakby była transpozycja,\nale wysokości nut jakby nie było. 	!	!	!	!	!	!	!	!	!	!LO:TX:t=P:all\right: global:problem	!	!	!	!	!	!	!
4C\	3	p	4C\	p	4c\	p	4g/	p	(4ee-\	p	4C\	San-	p	((4c\	San-	p	2g\	San-	p	(4ee-\	Sanc-	p	2.r	.	2.r	.	2.r	.	2.r	.	2.r	.	(4g\	p	2.r	.	2.r	.	2.r	.
4D\	.	.	4D\	.	4Bn\	.	4f/	.	4dd\)	.	4D\	.	.	4d\)	.	.	.	.	.	4dd\	.	.	.	.	.	.	.	.	.	.	.	.	4f\	.	.	.	.	.	.	.
4E-\	6	.	4E-\	.	4c\	.	4e-/	.	4cc\	.	4E-\	-ctus	.	4e-\)	-ctus	.	4g\	-ctus	.	4cc\)	-tus	.	.	.	.	.	.	.	.	.	.	.	4e-\)	.	.	.	.	.	.	.
=2	=2	=2	=2	=2	=2	=2	=2	=2	=2	=2	=2	=2	=2	=2	=2	=2	=2	=2	=2	=2	=2	=2	=2	=2	=2	=2	=2	=2	=2	=2	=2	=2	=2	=2	=2	=2	=2	=2	=2	=2
*	*	*	*	*	*	*	*	*	*	*	*	*ij	*	*	*ij	*	*	*ij	*	*	*ij	*	*	*	*	*	*	*	*	*	*	*	*	*	*	*	*	*	*	*
4F\	.	.	4F\	.	4G/	.	8e-/L	.	(8cc\L	.	4F\	San-	.	8e-\L	San-	.	4g\	San-	.	8cc\L	San-	.	2.r;	.	2.r;	.	2.r;	.	2.r;	.	2.r;	.	4e-\	.	2.r;	.	2.r;	.	2.r;	.
.	.	.	.	.	.	.	8d/J	.	8bnX\J)	.	.	.	.	8d\J	.	.	.	.	.	8bn\J	.	.	.	.	.	.	.	.	.	.	.	.	.	.	.	.	.	.	.	.
*2\right	*	*	*2\right	*	*2\right	*	*	*	*2\right	*	*2\right	*	*	*2\right	*	*	*	*	*	*2\right	*	*	*	*	*	*	*	*	*	*	*	*	*2\right	*	*	*	*	*	*	*
2A-;\	n3	.	2A-^<;\	.	2g^<;\	.	2d^;/	.	2bny;\	.	2A-^<;\	-ctus	.	2d;\	-ctus	.	2a-;\	-ctus	.	2b^;\	-ctus	.	.	.	.	.	.	.	.	.	.	.	2d^<;\	.	.	.	.	.	.	.
*	*	*	*	*	*	*	*	*	*	*	*	*	*	*	*	*	*	*Xij	*	*	*	*	*	*	*	*	*	*	*	*	*	*	*	*	*	*	*	*	*	*
=3	=3	=3	=3	=3	=3	=3	=3	=3	=3	=3	=3	=3	=3	=3	=3	=3	=3	=3	=3	=3	=3	=3	=3	=3	=3	=3	=3	=3	=3	=3	=3	=3	=3	=3	=3	=3	=3	=3	=3	=3
!	!	!	!	!	!	!	!	!	!	!	!	!	!	!	!	!	!	!	!	!	!	!	!	!	!	!	!	!	!	!	!LO:TX:a:t=1	!	!	!	!	!	!LO:TX:a:t=1	!	!	!
4BBn/	5 3	.	4BBn/	.	4Bn\	.	4a-/	.	(4ff\	.	4BBn/	San-	.	(4d\	San-	.	(4bn\	San-	.	4ff\	San-	.	2.r	.	2.r	.	2.r	.	2.r	.	2.r	.	(4a-X\	.	2.r	.	2.r	.	2.r	.
4C/	3	.	4C/	.	4c\	.	4g/	.	4ee-\)	.	4C/	.	.	4e-\)	.	.	4a-\)	.	.	4ee-\	.	.	.	.	.	.	.	.	.	.	.	.	4g\	.	.	.	.	.	.	.
4D/	.	.	4D/	.	4d\	.	4f/	.	4dd\	.	4D/	-ctus	.	4f\	-ctus	.	4b\	-ctus	.	4dd\	-ctus	.	.	.	.	.	.	.	.	.	.	.	4f\)	.	.	.	.	.	.	.
=4	=4	=4	=4	=4	=4	=4	=4	=4	=4	=4	=4	=4	=4	=4	=4	=4	=4	=4	=4	=4	=4	=4	=4	=4	=4	=4	=4	=4	=4	=4	=4	=4	=4	=4	=4	=4	=4	=4	=4	=4
*	*	*	*	*	*	*	*	*	*	*	*	*	*	*	*	*	*	*ij	*	*	*	*	*	*	*	*	*	*	*	*	*	*	*	*	*	*	*	*	*	*
4E-\	6	.	4E-\	.	4e-\	.	8f/L	.	(8dd\L	.	4E-\	San-	.	(8f\L	San-	.	4g\	San-	.	8dd\L	San-	.	2.r;	.	2.r;	.	2.r;	.	2.r;	.	2.r;	.	8f\L	.	2.r;	.	2.r;	.	2.r;	.
.	.	.	.	.	.	.	8e-/J	.	8cc\J)	.	.	.	.	8e-\J)	.	.	.	.	.	8cc\J	.	.	.	.	.	.	.	.	.	.	.	.	8e-\J	.	.	.	.	.	.	.
2E-;\	.	.	2E-;\	.	2g;\	.	2e-^;/	.	2cc^<;\	.	2G^<;\	-ctus	.	2e-;\	-ctus	.	2f;^<\	-ctus	.	2cc^<;\	-ctus	.	.	.	.	.	.	.	.	.	.	.	2e-^<;\	.	.	.	.	.	.	.
!	!	!	!	!	!	!	!	!	!LO:LB:g=original	!	!	!	!	!LO:LB:g=original	!	!	!LO:LB:g=original	!	!	!	!	!	!	!	!	!	!	!	!	!	!	!	!	!	!	!	!	!	!	!
=5	=5	=5	=5	=5	=5	=5	=5	=5	=5	=5	=5	=5	=5	=5	=5	=5	=5	=5	=5	=5	=5	=5	=5	=5	=5	=5	=5	=5	=5	=5	=5	=5	=5	=5	=5	=5	=5	=5	=5	=5
*	*	*	*	*	*	*	*	*	*	*	*	*	*	*	*	*	*	*	*	*	*	*	*	*	*	*	*	*	*	*	*	*	*clefF4	*	*	*	*	*	*	*
!	!	!	!	!	!	!	!	!	!	!	!	!	!LO:DY:a:rj	!	!	!LO:DY:a:	!	!	!LO:DY:a:rj:t=fo	!LO:TX:t=P:problem=forte midle	!	!	!	!	!	!	!	!	!	!	!	!	!	!	!	!	!LO:TX:t=P:all\right: global:problem	!	!	!
!	!	!	!	!	!	!LO:DY:rj	!	!LO:HP:a	!	!	!	!	!	!	!	!LO:DY:a	!:global	!	!LO:DY:a	!	!	!	!LO:TX:a:t=2	!	!LO:TX:a:t=2	!	!	!	!	!	!	!	!	!	!LO:TX:t=P:all\right: global:problem	!	!LO:TX:b:i:t=cres	!	!LO:TX:t=P:all\right: global:problem	!
4c\	3	<	4c\	<	4e-\	f	4cc\	f <	4cc\	f	4c\	San-	f	4c\	San-	f <	2g\	San-	f <	4cc\	San-	f	1.r	.	1.r	.	1.r	.	1.r	.	1.r	.	4c\	.	4cc\	.	4cc\	.	4ccc\	f
!	!	!	!	!LO:HP:a	!	!	!	!	!	!LO:HP:a	!	!	!LO:DY:a	!	!	!	!	!	!	!	!	!	!	!	!	!	!	!	!	!	!	!	!	!LO:HP:a	!	!LO:HP:a	!	!LO:HP:a	!	!
4Bn\	3	.	4Bn\	<	4g\	.	4bn\	.	4dd\	<	4Bn\	.	<	4Bn\	.	.	.	.	.	4dd\	.	.	.	.	.	.	.	.	.	.	.	.	4Bn\	<	4bX\	<	4dd\	<	4ddd\	.
4B-X\	4	[[	4B-X\	.	4b-\	.	4b-X\	[	4een\	.	4B-X\	-ctus	.	4B-X\	-ctus	.	4g\	-ctus	.	4een\	-ctus	.	.	.	.	.	.	.	.	.	.	.	4B-X\	.	4b-\	[[	4eeX\	.	4eeen\	.
*	*	*	*	*	*	*	*	*	*	*	*	*Xij	*	*	*Xij	*	*	*Xij	*	*	*Xij	*	*	*	*	*	*	*	*	*	*	*	*	*	*	*	*	*	*	*
!	!	!	!	!	!	!	!LO:LB:g=original	!	!	!	!	!	!	!	!	!	!	!	!	!	!	!	!	!	!	!	!	!	!	!	!	!	!	!	!	!	!	!	!	!
=6	=6	=6	=6	=6	=6	=6	=6	=6	=6	=6	=6	=6	=6	=6	=6	=6	=6	=6	=6	=6	=6	=6	=6	=6	=6	=6	=6	=6	=6	=6	=6	=6	=6	=6	=6	=6	=6	=6	=6	=6
8.A-\L	6	.	8.A-\L	.	4a-\	.	8.a-/L	.	8.ff\L	.	8.A-\	Do-	.	8.A-\	Do-	.	8.c\	Do-	.	8.ff\	Do-	.	.	.	.	.	.	.	.	.	.	.	8.A-\L	.	8.g\L	.	8.ff\L	.	4fff\	.
16G\Jk	_	.	16G\Jk	.	.	.	16g/Jk	.	16gg\Jk	.	16G\	-mi-	.	16c\	-mi-	.	16c\	-mi-	.	16gg\	-mi-	.	.	.	.	.	.	.	.	.	.	.	16G\Jk	.	16eeX\Jk	.	16gg\Jk	.	.	.
4F\	.	.	4F\	[	4A-/	.	4f/	.	4aa-\	[	4F\	-nus	[	4f\	-nus	[	4c\	-nus	[	4aa-\	-nus	.	.	.	.	.	.	.	.	.	.	.	4F\	[	4ff\	.	4aa-\	[	4fff\	.
4r	x	.	4r	.	8r	.	8r	.	8r	.	4r	.	.	4r	.	.	4r	.	.	4r	.	.	.	.	.	.	.	.	.	.	.	.	4r	.	4r	.	4r	.	4r	.
.	.	.	.	.	8B-/	.	8a-/	.	8ff\	.	.	.	.	.	.	.	.	.	.	.	.	.	.	.	.	.	.	.	.	.	.	.	.	.	.	.	.	.	.	.
!	!	!	!	!	!LO:LB:g=original	!	!	!	!	!	!LO:LB:g=original	!	!	!	!	!	!	!	!	!	!	!	!	!	!	!	!	!	!	!	!	!	!LO:LB:g=original	!	!	!	!	!	!	!
=7	=7	=7	=7	=7	=7	=7	=7	=7	=7	=7	=7	=7	=7	=7	=7	=7	=7	=7	=7	=7	=7	=7	=7	=7	=7	=7	=7	=7	=7	=7	=7	=7	=7	=7	=7	=7	=7	=7	=7	=7
!	!	!	!	!	!	!	!	!	!	!	!	!	!	!	!	!	!	!	!	!	!	!	!LO:TX:t=P:all\right: global:problem	!LO:DY:rj:t=fo	!	!	!	!	!	!LO:DY:rj	!	!	!	!	!	!LO:DY:rj	!	!	!	!
!	!	!	!	!	!	!	!	!	!	!	!	!	!	!	!	!	!LO:TX:t=P:f=f:problem	!	!	!	!	!	!	!	!LO:TX:t=P:all\right: global:problem	!LO:DY:rj	!LO:TX:t=P:all\right: global:problem	!LO:DY:rj	!LO:TX:t=P:all\right: global:problem	!	!LO:TX:t=P:all\right: global:problem	!LO:DY:rj	!	!	!	!	!	!	!	!
8E-\L	.	f	8E-\L	f	4e-\	.	8a-/L	.	8gg\L	.	8E-\	De-	.	8f\	De-	.	8g\	De-	f	8gg\L	De-	.	4E-\	f	4G/	f	4ee-\	f	4ee-\	f	4g\	f	8E-\L	.	4ee-\	f	4gg\	f	4eee-\	.
8G\J	.	.	8G\J	.	.	.	8g/J	.	8ee-\J	.	8G\	-us	.	8g\	-us	.	8g\	-us	.	8ee-\J	-us	.	.	.	.	.	.	.	.	.	.	.	8G\J	.	.	.	.	.	.	.
4B-\	6	.	4B-\	.	4f\	.	4a-/	.	4cc\	.	4B-\	Sa-	.	4a-\	sa-	.	4f\	sa-	.	4cc\	sa-	.	4r	.	4r	.	4r	.	4r	.	4r	.	4A-\	.	4a-\	.	4cc\	.	4ccc\	.
4BB-/	3	.	4BB-/	.	4B-\	.	4b-/	.	4dd\	.	4BB-/	-ba-	.	4f\	-ba-	.	4b-\	-ba-	.	4dd\	-ba-	.	4BB-/	.	4B-/	.	4ff\	.	4b-/	.	4f\	.	4B-\	.	4b-\	.	4dd\	.	4ddd\	.
!LO:LB:g=original	!	!	!	!	!	!	!	!	!	!	!	!	!	!	!	!	!	!	!LO:LB:g=original	!	!	!	!	!	!	!	!	!	!	!	!	!	!	!	!	!	!	!	!LO:LB:g=original	!
=8	=8	=8	=8	=8	=8	=8	=8	=8	=8	=8	=8	=8	=8	=8	=8	=8	=8	=8	=8	=8	=8	=8	=8	=8	=8	=8	=8	=8	=8	=8	=8	=8	=8	=8	=8	=8	=8	=8	=8	=8
4E-\	.	.	4E-\	.	4B-/	.	4g/	.	4ee-\	.	4E-\	-oth	.	4g\	-oth	.	4b-\	-oth	.	4ee-\	-oth	.	4E-\	.	4G/	.	4ee-\	.	4g/	.	4e-\	.	4E-\	.	4g/	.	4ee-\	.	4eee-\	.
4EE-/	.	.	4EE-/ 4E-/	.	4r	.	4r	.	4r	.	4r	.	.	4r	.	.	4r	.	.	4r	.	.	4r	.	4G/	.	4ee-\	.	4g/	.	4e-\	.	4EE-/	.	4g/	.	4ee-\	.	4eee-\	.
4r	.	.	4r	.	4r	.	4r	.	4b-\	.	4r	.	.	4r	.	.	4r	.	.	4r	.	.	4r	.	4r	.	4r	.	4r	.	4r	.	4r	.	4r	.	4r	.	4r	.
!	!	!	!LO:LB:g=original	!	!	!	!	!	!	!	!	!	!	!	!	!	!	!	!	!	!	!	!	!	!	!	!	!	!	!	!	!	!	!	!LO:LB:g=original	!	!LO:LB:g=original	!	!	!
=9	=9	=9	=9	=9	=9	=9	=9	=9	=9	=9	=9	=9	=9	=9	=9	=9	=9	=9	=9	=9	=9	=9	=9	=9	=9	=9	=9	=9	=9	=9	=9	=9	=9	=9	=9	=9	=9	=9	=9	=9
!LO:TX:a:t=4	!	!	!LO:TX:a:t=4	!	!	!	!	!	!LO:TX:a:rj:i:t=Dol	!	!	!	!	!	!	!	!	!	!	!LO:TX:a:i:t=Do	!	!	!	!	!	!	!	!	!	!	!	!	!	!	!LO:TX:a:t=2	!	!	!	!	!
0.r	.	.	0.r	.	2.r	.	2.r	.	4gg\	.	0.r	.	.	2.r	.	.	0.r	.	.	(4gg\	San-	p	0.r	.	0.r	.	0.r	.	0.r	.	0.r	.	2.r	.	1.r	.	2.r	.	2.r	.
.	.	.	.	.	.	.	.	.	(4dd\	.	.	.	.	.	.	.	.	.	.	4dd\)	-ctus	.	.	.	.	.	.	.	.	.	.	.	.	.	.	.	.	.	.	.
.	.	.	.	.	.	.	.	.	4ee-\)	.	.	.	.	.	.	.	.	.	.	4ee-\	.	.	.	.	.	.	.	.	.	.	.	.	.	.	.	.	.	.	.	.
*	*	*	*	*	*	*	*	*	*	*	*	*	*	*	*	*	*	*	*	*	*	*	*	*	*	*	*	*	*	*	*	*	*clefC4	*	*	*	*	*	*	*
=10	=10	=10	=10	=10	=10	=10	=10	=10	=10	=10	=10	=10	=10	=10	=10	=10	=10	=10	=10	=10	=10	=10	=10	=10	=10	=10	=10	=10	=10	=10	=10	=10	=10	=10	=10	=10	=10	=10	=10	=10
*	*	*	*	*	*	*	*	*	*	*	*	*	*	*	*	*	*	*	*	*	*ij	*	*	*	*	*	*	*	*	*	*	*	*	*	*	*	*	*	*	*
!	!	!	!	!	!	!LO:DY:t=p.	!	!	!	!	!	!	!	!LO:TX:a:i:t=Dol	!	!LO:DY:b	!	!	!	!	!	!	!	!	!	!	!	!	!	!	!	!	!LO:TX:a:i:t=dol	!	!	!	!LO:TX:a:rj:i:t=Dol	!	!	!LO:DY:rj
.	.	.	.	.	4B-/	p	4g/	p	(4ee-\	.	.	.	.	(4g\	San-	p	.	.	.	4ee-\	San-	.	.	.	.	.	.	.	.	.	.	.	4g\	.	.	.	4gg\	.	4ggg\	p
.	.	.	.	.	4G/	.	4d/	.	4bn\	.	.	.	.	4d\	.	.	.	.	.	4bn\	.	.	.	.	.	.	.	.	.	.	.	.	(4d\	.	.	.	(4dd\	.	4ddd\	.
.	.	.	.	.	4G/	.	4e-/	.	4cc\)	.	.	.	.	4e-\)	-ctus	.	.	.	.	4cc\	-ctus	.	.	.	.	.	.	.	.	.	.	.	4e-\)	.	.	.	4ee-\)	.	4eee-\	.
*	*	*	*	*	*	*	*	*	*	*	*	*	*	*	*	*	*	*	*	*	*Xij	*	*	*	*	*	*	*	*	*	*	*	*	*	*	*	*	*	*	*
!	!	!	!	!	!	!	!	!	!LO:LB:g=original	!	!	!	!	!LO:LB:g=original	!	!	!	!	!	!	!	!	!	!	!	!	!	!	!	!	!	!	!	!	!	!	!	!	!	!
=11	=11	=11	=11	=11	=11	=11	=11	=11	=11	=11	=11	=11	=11	=11	=11	=11	=11	=11	=11	=11	=11	=11	=11	=11	=11	=11	=11	=11	=11	=11	=11	=11	=11	=11	=11	=11	=11	=11	=11	=11
*	*	*	*	*	*	*	*	*	*	*	*	*	*	*	*	*	*	*	*	*	*	*	*	*	*	*	*	*	*	*	*	*	*	*	*2\right	*	*2\right	*	*2\right	*
.	.	.	.	.	2en^\	.	2g/	.	2cc^\	.	.	.	.	2en\	Do-	.	.	.	.	2cc\	Do-	.	.	.	.	.	.	.	.	.	.	.	(2c^\	.	(2cc\	.	2eeX\	.	2.eeen\	.
.	.	.	.	.	4c\	.	4g/	.	4b-\	.	.	.	.	4g\	-mi-	.	.	.	.	4b-\	-mi-	.	.	.	.	.	.	.	.	.	.	.	4en\)	.	4b-\)	.	4gg\	.	.	.
=12	=12	=12	=12	=12	=12	=12	=12	=12	=12	=12	=12	=12	=12	=12	=12	=12	=12	=12	=12	=12	=12	=12	=12	=12	=12	=12	=12	=12	=12	=12	=12	=12	=12	=12	=12	=12	=12	=12	=12	=12
.	.	.	.	.	2c\	.	2f/	.	4.a-/	.	.	.	.	4f\	-nus	.	.	.	.	4a-\	-nus	.	.	.	.	.	.	.	.	.	.	.	4f\	.	4a-\	.	4ff\	.	4fff\	.
.	.	.	.	.	.	.	.	.	.	.	.	.	.	4r	.	.	.	.	.	4r	.	.	.	.	.	.	.	.	.	.	.	.	4r	.	4r	.	4r	.	4r	.
.	.	.	.	.	.	.	.	.	16b-'/LL	<	.	.	.	.	.	.	.	.	.	.	.	.	.	.	.	.	.	.	.	.	.	.	.	.	.	.	.	.	.	.
.	.	.	.	.	.	.	.	.	16cc'/JJ	.	.	.	.	.	.	.	.	.	.	.	.	.	.	.	.	.	.	.	.	.	.	.	.	.	.	.	.	.	.	.
.	.	.	.	.	4r	.	4r	.	16dd'\LL	.	.	.	.	4r	.	.	.	.	.	4r	.	.	.	.	.	.	.	.	.	.	.	.	4r	.	4r	.	4r	.	4r	.
.	.	.	.	.	.	.	.	.	16ee-'\	.	.	.	.	.	.	.	.	.	.	.	.	.	.	.	.	.	.	.	.	.	.	.	.	.	.	.	.	.	.	.
.	.	.	.	.	.	.	.	.	16ff'\	.	.	.	.	.	.	.	.	.	.	.	.	.	.	.	.	.	.	.	.	.	.	.	.	.	.	.	.	.	.	.
.	.	.	.	.	.	.	.	.	16gg'\JJ	.	.	.	.	.	.	.	.	.	.	.	.	.	.	.	.	.	.	.	.	.	.	.	.	.	.	.	.	.	.	.
=13	=13	=13	=13	=13	=13	=13	=13	=13	=13	=13	=13	=13	=13	=13	=13	=13	=13	=13	=13	=13	=13	=13	=13	=13	=13	=13	=13	=13	=13	=13	=13	=13	=13	=13	=13	=13	=13	=13	=13	=13
*	*	*	*	*	*	*	*	*	*	*	*	*	*	*	*	*	*	*	*	*	*	*	*	*	*	*	*	*	*	*	*	*	*clefF4	*	*	*	*	*	*	*
!	!	!	!	!	!	!LO:DY:rj	!	!	!	!LO:DY:rj	!	!	!LO:DY:t=fo	!	!	!LO:DY:a	!	!	!	!	!	!LO:DY:a	!	!LO:DY:rj	!	!LO:DY:rj	!	!LO:DY:rj	!	!	!	!LO:DY:rj	!	!	!	!LO:DY:rj	!	!	!	!
4B-\	7 5	f	4B-\	.	(4d\	f	4f/	.	2aa-^\	f	(4D\	De-	f	2f\	De-	f	2b-\	De-	f	2aa-\	De-	f	4BB-/	f	4B-/	f	4ff\	f	4b-/	f	4f\	f	4BB-/	.	2ff\	f	2aa-\	f	2ddd\	f
4BB-/	_ _	.	4BB-/	.	4f\	.	4a-^</	.	.	.	4BB-\	.	.	.	.	.	.	.	.	.	.	.	8r	.	8r	.	8r	.	8r	.	8r	.	4B-\	.	.	.	.	.	.	.
.	.	.	.	.	.	.	.	.	.	.	.	.	.	.	.	.	.	.	.	.	.	.	8BB-/L	.	16B-/LL	.	16ff\LL	.	8b-/L	.	8f\L	.	.	.	.	.	.	.	.	.
.	.	.	.	.	.	.	.	.	.	.	.	.	.	.	.	.	.	.	.	.	.	.	.	.	16B-/JJ	.	16ff\JJ	.	.	.	.	.	.	.	.	.	.	.	.	.
4BBn/	x	.	4BBn/	.	4d\)	.	4f/	.	4aa-\	.	4D\)	-us	.	4f\	-us	.	4b-\	-us	.	4aa-\	-us	.	8BB-/	.	8B-/L	.	8ff\L	.	8b-/	.	8f\	.	4Bn\	.	4ff\	.	4aa-\	.	4ddd\	.
.	.	.	.	.	.	.	.	.	.	.	.	.	.	.	.	.	.	.	.	.	.	.	8BB-/J	.	8B-/J	.	8ff\J	.	8b-/J	.	8f\J	.	.	.	.	.	.	.	.	.
!	!	!	!	!	!	!	!	!	!	!	!	!	!	!	!	!	!LO:LB:g=original	!	!	!	!	!	!	!	!	!	!	!	!	!	!	!	!	!	!	!	!	!	!	!
=14	=14	=14	=14	=14	=14	=14	=14	=14	=14	=14	=14	=14	=14	=14	=14	=14	=14	=14	=14	=14	=14	=14	=14	=14	=14	=14	=14	=14	=14	=14	=14	=14	=14	=14	=14	=14	=14	=14	=14	=14
*	*	*	*	*	*	*	*	*	*	*	*	*ij	*	*	*ij	*	*	*	*	*	*ij	*	*	*	*	*	*	*	*	*	*	*	*	*	*	*	*	*	*	*
4C\	5 3	.	4C\	.	(4e-\	.	4g/	.	2gg\	.	2E-\	De-	.	2e-\	De	.	2b-\	De-	.	2gg\	De-	.	4E-\	.	4G/	.	4ee-\	.	4ee-\	.	4g\	.	4c\	.	2ee-\	.	2gg\	.	2eee-\	.
4E-\	_ _	.	4E-\	.	4g\	.	4b-/	.	.	.	.	.	.	.	.	.	.	.	.	.	.	.	8r	.	8r	.	8r	.	8r	.	8r	.	4e-\	.	.	.	.	.	.	.
.	.	.	.	.	.	.	.	.	.	.	.	.	.	.	.	.	.	.	.	.	.	.	8E-\L	.	16G/LL	.	16ee-\LL	.	8g/L	.	8e-\L	.	.	.	.	.	.	.	.	.
.	.	.	.	.	.	.	.	.	.	.	.	.	.	.	.	.	.	.	.	.	.	.	.	.	16G/JJ	.	16ee-\JJ	.	.	.	.	.	.	.	.	.	.	.	.	.
4G\	x	.	4G\	.	4e-\)	.	4g/	.	4ee-\	.	4G\	-us	.	4B-\	us	.	4g\	-us	.	4ee-\	-us	.	8E-\	.	8G/L	.	8ee-\L	.	8g/	.	8e-\	.	4c\	.	4b-\	.	4ee-\	.	4gg\	.
*	*	*	*	*	*	*	*	*	*	*	*	*Xij	*	*	*Xij	*	*	*	*	*	*Xij	*	*	*	*	*	*	*	*	*	*	*	*	*	*	*	*	*	*	*
.	.	.	.	.	.	.	.	.	.	.	.	.	.	.	.	.	.	.	.	.	.	.	8E-\J	.	8G/J	.	8ee-\J	.	8g/J	.	8e-\J	.	.	.	.	.	.	.	.	.
!	!	!	!	!	!	!	!LO:LB:g=original	!	!	!	!	!	!	!	!	!	!	!	!	!	!	!	!LO:LB:g=original	!	!	!	!	!	!	!	!	!	!	!	!	!	!	!	!	!
=15	=15	=15	=15	=15	=15	=15	=15	=15	=15	=15	=15	=15	=15	=15	=15	=15	=15	=15	=15	=15	=15	=15	=15	=15	=15	=15	=15	=15	=15	=15	=15	=15	=15	=15	=15	=15	=15	=15	=15	=15
*	*	*	*	*	*	*	*2\right	*	*	*	*	*	*	*	*	*	*	*	*	*	*	*	*	*	*	*	*	*	*	*	*	*	*	*	*	*	*	*	*	*
2A-\	3	.	2A-\	.	2a-\	.	2cc\	.	2ff\	.	2A-\	Sa-	.	2c\	Sa-	.	2a-\	Sa-	.	2ff\	Sa-	.	4BB-/	.	4B-/	.	4ff\	.	4b-/	.	4f\	.	2A-\	.	2cc\	.	2ff\	.	2ccc\	.
.	.	.	.	.	.	.	.	.	.	.	.	.	.	.	.	.	.	.	.	.	.	.	4r	.	4r	.	4r	.	4r	.	4r	.	.	.	.	.	.	.	.	.
4B-\	3	.	4B-\	.	4b-\	.	4a-\	.	4dd\	.	4B-\	-ba-	.	4B-\	-ba-	.	4a-\	-ba-	.	4dd\	-ba-	.	4BB-/	.	4B-/	.	4ff\	.	4b-/	.	4f\	.	4B-\	.	4b-\	.	4dd\	.	4bb-\	.
!	!	!	!	!	!	!	!	!	!	!	!	!	!	!	!	!	!	!	!	!	!	!	!	!	!	!	!LO:LB:g=original	!	!	!	!LO:LB:g=original	!	!	!	!	!	!	!	!	!
=16!||	=16!||	=16!||	=16!||	=16!||	=16!||	=16!||	=16!||	=16!||	=16!||	=16!||	=16!||	=16!||	=16!||	=16!||	=16!||	=16!||	=16!||	=16!||	=16!||	=16!||	=16!||	=16!||	=16!||	=16!||	=16!||	=16!||	=16	=16	=16	=16	=16	=16	=16!||	=16!||	=16!||	=16!||	=16!||	=16!||	=16!||	=16!||
*M4/4	*	*	*M4/4	*	*M4/4	*	*M4/4	*	*M4/4	*	*M4/4	*	*	*M4/4	*	*	*M4/4	*	*	*M4/4	*	*	*M4/4	*	*M4/4	*	*M4/4	*	*M4/4	*	*M4/4	*	*M4/4	*	*M4/4	*	*M4/4	*	*M4/4	*
*met(c)	*	*	*met(c)	*	*met(c)	*	*met(c)	*	*met(c)	*	*met(c)	*	*	*met(c)	*	*	*met(c)	*	*	*met(c)	*	*	*met(c)	*	*met(c)	*	*met(c)	*	*met(c)	*	*met(c)	*	*met(c)	*	*met(c)	*	*met(c)	*	*met(c)	*
*tremolo	*	*	*	*	*	*	*	*	*	*	*	*	*	*	*	*	*	*	*	*	*	*	*	*	*	*	*	*	*	*	*	*	*	*	*	*	*	*	*	*
*	*	*	*tremolo	*	*	*	*	*	*	*	*	*	*	*	*	*	*	*	*	*	*	*	*	*	*	*	*	*	*	*	*	*	*	*	*	*	*	*	*	*
!LO:TX:a:t=Allo con brio	!	!	!LO:TX:a:rj:t=Allo con brio	!	!LO:TX:a:rj:t=Allo	!	!LO:TX:a:rj:t=Allo con brio	!	!LO:TX:a:t=Allo con brio	!	!	!	!	!LO:TX:a:t=Allo conb	!	!	!	!	!	!	!	!LO:DY:a	!	!	!	!	!LO:TX:a:rj:t=Allo conbrio	!	!LO:TX:a:rj:t=Allo	!	!	!	!LO:TX:a:rj:t=Allo conbrio	!	!LO:TX:a:rj:t=Allo	!	!LO:TX:a:rj:t=Allo conbrio	!	!LO:TX:a:t=Allo conbrio	!
!LO:TX:b:t=Baſso	!	!	!	!	!	!	!	!	!	!	!	!	!	!	!	!	!LO:TX:a:t=Allo	!	!	!	!	!	!LO:TX:a:rj:t=Allo con brio	!	!	!	!	!	!	!	!	!	!	!	!	!	!	!	!	!
8E-\L	.	p	8E-\L	p	4b-\	.	4g/	.	4ee-\	.	4E-\	-oth	.	4B-\	-oth	.	4g\	-oth	.	4ee-\	-oth	p	4E-\	.	4G/	.	4ee-\	.	4g/	.	4e-\	.	4E-\	.	4b-\	.	4ee-\	.	4bb-\	.
8E-\	.	.	8E-\	.	.	.	.	.	.	.	.	.	.	.	.	.	.	.	.	.	.	.	.	.	.	.	.	.	.	.	.	.	.	.	.	.	.	.	.	.
!	!	!	!	!	!	!	!	!	!	!	!	!	!	!	!	!LO:DY:rj	!	!	!	!	!	!	!	!	!	!	!	!	!	!	!	!	!	!	!	!	!	!	!	!
8E-\	.	.	8E-\	.	4r	.	4e-/	p	(4g/	p	2BB-/	ple-	p	2B-\	Ple-	p	(4e-\	ple-	p	(4g\	ple-	.	4r	.	4r	.	4r	.	4r	.	4r	.	4r	p	4r	.	4r	.	4r	.
8E-\J	.	.	8E-\J	.	.	.	.	.	.	.	.	.	.	.	.	.	.	.	.	.	.	.	.	.	.	.	.	.	.	.	.	.	.	.	.	.	.	.	.	.
8E-\L	.	.	8E-\L	.	4r	p	4d/	.	4f#X/	.	.	.	.	.	.	.	4d\)	.	.	4f#X\)	.	.	2r	.	2r	.	2r	.	2r	.	2r	.	4r	.	2r	.	2r	.	2r	.
8E-\	.	.	8E-\	.	.	.	.	.	.	.	.	.	.	.	.	.	.	.	.	.	.	.	.	.	.	.	.	.	.	.	.	.	.	.	.	.	.	.	.	.
8E-\	.	.	8E-\	.	4B-/	.	4e-/	.	4g/)	.	4BB-/	-ni	.	4B-\	-ni	.	4e-\	-ni	.	4g\	-ni	.	.	.	.	.	.	.	.	.	.	.	4E-\	.	.	.	.	.	.	.
8E-\J	.	.	8E-\J	.	.	.	.	.	.	.	.	.	.	.	.	.	.	.	.	.	.	.	.	.	.	.	.	.	.	.	.	.	.	.	.	.	.	.	.	.
!	!	!	!	!	!LO:LB:g=original	!	!	!	!	!	!	!	!	!LO:LB:g=original	!	!	!	!	!	!LO:LB:g=original	!	!	!	!	!	!	!	!	!	!	!	!	!LO:LB:g=original	!	!	!	!	!	!LO:LB:g=original	!
=17	=17	=17	=17	=17	=17	=17	=17	=17	=17	=17	=17	=17	=17	=17	=17	=17	=17	=17	=17	=17	=17	=17	=17	=17	=17	=17	=17	=17	=17	=17	=17	=17	=17	=17	=17	=17	=17	=17	=17	=17
!LO:TX:t=P:problem=mixed beam	!	!	!LO:TX:t=P:problem=mixed beam	!	!	!	!	!	!	!	!	!	!	!	!	!	!	!	!	!	!	!	!	!	!LO:TX:a:t=3	!	!	!	!LO:TX:a:t=3	!	!	!	!	!	!	!	!LO:TX:a:t=3	!	!LO:TX:a:t=3	!
8EE-/L	.	.	8EE-/L	.	4B-/	.	4f/	.	4a-/	.	4r	.	.	4r	.	.	4r	.	.	4r	.	.	0r	.	0r	.	0r	.	0r	.	0r	.	4EE-/	.	0r	.	0r	.	0r	.
8E-\	.	.	8E-\	.	.	.	.	.	.	.	.	.	.	.	.	.	.	.	.	.	.	.	.	.	.	.	.	.	.	.	.	.	.	.	.	.	.	.	.	.
*	*	*	*	*	*	*	*	*	*	*	*	*ij	*	*	*ij	*	*	*	*	*	*ij	*	*	*	*	*	*	*	*	*	*	*	*	*	*	*	*	*	*	*
8E-\	.	.	8E-\	.	4r	.	4r	.	4r	.	2BB-/	ple-	.	2B-\	ple-	.	(4f\	ple-	.	(4a-\	ple-	.	.	.	.	.	.	.	.	.	.	.	4r	.	.	.	.	.	.	.
8E-\J	.	.	8E-\J	.	.	.	.	.	.	.	.	.	.	.	.	.	.	.	.	.	.	.	.	.	.	.	.	.	.	.	.	.	.	.	.	.	.	.	.	.
8E-\L	.	.	8E-\L	.	4r	.	4r	.	4r	.	.	.	.	.	.	.	4en\	.	.	4g\	.	.	.	.	.	.	.	.	.	.	.	.	4r	.	.	.	.	.	.	.
8E-\	.	.	8E-\	.	.	.	.	.	.	.	.	.	.	.	.	.	.	.	.	.	.	.	.	.	.	.	.	.	.	.	.	.	.	.	.	.	.	.	.	.
8E-\	.	.	8E-\	.	4B-/	.	4f/	.	4a-/	.	4BB-/	-ni	.	4B-\	-ni	.	4f\)	-ni	.	4a-\)	-ni	.	.	.	.	.	.	.	.	.	.	.	4E-\	.	.	.	.	.	.	.
*	*	*	*	*	*	*	*	*	*	*	*	*	*	*	*	*	*	*	*	*	*Xij	*	*	*	*	*	*	*	*	*	*	*	*	*	*	*	*	*	*	*
8E-\J	.	.	8E-\J	.	.	.	.	.	.	.	.	.	.	.	.	.	.	.	.	.	.	.	.	.	.	.	.	.	.	.	.	.	.	.	.	.	.	.	.	.
!	!	!	!	!	!	!	!	!	!LO:LB:g=original	!	!	!	!	!	!	!	!	!	!	!	!	!	!	!	!	!	!	!	!	!	!	!	!	!	!	!	!	!	!	!
=18	=18	=18	=18	=18	=18	=18	=18	=18	=18	=18	=18	=18	=18	=18	=18	=18	=18	=18	=18	=18	=18	=18	=18	=18	=18	=18	=18	=18	=18	=18	=18	=18	=18	=18	=18	=18	=18	=18	=18	=18
*rep	*	*	*rep	*	*	*	*	*	*	*	*	*	*	*	*	*	*	*	*	*	*	*	*	*	*	*	*	*	*	*	*	*	*	*	*	*	*	*	*	*
!	!	!	!LO:TX:t=P:problem=takty 18-19 zapisane powtórkami	!	!	!	!	!	!	!	!	!	!	!	!	!	!	!	!	!	!	!	!	!	!	!	!	!	!	!	!	!	!	!	!	!	!	!	!	!
!LO:TX:t=P:problem=mixed beam	!	!	!LO:TX:t=P:problem=mixed beam	!	!	!	!	!	!	!	!	!	!	!	!	!	!	!	!	!	!	!	!	!	!	!	!	!	!	!	!	!	!	!	!	!	!	!	!	!
8EE-/L	.	.	8EE-/L	.	4B-/	.	4g/	.	4b-\	.	4r	.	.	4r	.	.	4r	.	.	4r	.	.	.	.	.	.	.	.	.	.	.	.	4EE-/	.	.	.	.	.	.	.
8E-\	.	.	8E-\	.	.	.	.	.	.	.	.	.	.	.	.	.	.	.	.	.	.	.	.	.	.	.	.	.	.	.	.	.	.	.	.	.	.	.	.	.
8E-\	.	.	8E-\	.	4r	.	4r	.	4r	.	4BB-/	ple-	.	4B-\	ple-	.	(4g\	ple-	.	(4b-\	ple-	.	.	.	.	.	.	.	.	.	.	.	4r	.	.	.	.	.	.	.
8E-\J	.	.	8E-\J	.	.	.	.	.	.	.	.	.	.	.	.	.	.	.	.	.	.	.	.	.	.	.	.	.	.	.	.	.	.	.	.	.	.	.	.	.
8E-\L	.	.	8E-\L	.	4r	.	4r	.	4r	.	4B-\	-ni	.	4B-\	-ni	.	4f#X\	-ni	.	4an\	-ni	.	.	.	.	.	.	.	.	.	.	.	4r	.	.	.	.	.	.	.
*	*	*	*	*	*	*	*	*	*	*	*	*Xij	*	*	*Xij	*	*	*	*	*	*	*	*	*	*	*	*	*	*	*	*	*	*	*	*	*	*	*	*	*
8E-\	.	.	8E-\	.	.	.	.	.	.	.	.	.	.	.	.	.	.	.	.	.	.	.	.	.	.	.	.	.	.	.	.	.	.	.	.	.	.	.	.	.
8E-\	.	.	8E-\	.	4B-/	.	4g/	.	4b-\	.	4B-\	sunt	.	4B-\	sunt	.	4g\)	sunt	.	4b-\)	.	.	.	.	.	.	.	.	.	.	.	.	4E-\	.	.	.	.	.	.	.
8E-\J	.	.	8E-\J	.	.	.	.	.	.	.	.	.	.	.	.	.	.	.	.	.	.	.	.	.	.	.	.	.	.	.	.	.	.	.	.	.	.	.	.	.
*Xrep	*	*	*Xrep	*	*	*	*	*	*	*	*	*	*	*	*	*	*	*	*	*	*	*	*	*	*	*	*	*	*	*	*	*	*	*	*	*	*	*	*	*
!	!	!	!	!	!	!	!	!	!	!	!LO:LB:g=original	!	!	!	!	!	!	!	!	!	!	!	!	!	!	!	!	!	!	!	!	!	!	!	!	!	!	!	!	!
=19	=19	=19	=19	=19	=19	=19	=19	=19	=19	=19	=19	=19	=19	=19	=19	=19	=19	=19	=19	=19	=19	=19	=19	=19	=19	=19	=19	=19	=19	=19	=19	=19	=19	=19	=19	=19	=19	=19	=19	=19
*rep	*	*	*rep	*	*	*	*	*	*	*	*	*	*	*	*	*	*	*	*	*	*	*	*	*	*	*	*	*	*	*	*	*	*	*	*	*	*	*	*	*
!LO:TX:t=P:problem=mixed beam	!	!	!LO:TX:t=P:problem=mixed beam	!	!	!	!	!	!	!	!	!	!	!	!	!	!	!	!	!	!	!	!	!	!	!	!	!	!	!	!	!	!	!	!	!	!	!	!	!
8EE-/L	.	.	8EE-/L	.	4r	.	4r	.	4r	.	1A-\	cae-	.	2e-\	cael-	.	2a-\	ce-	.	2cc\	cae-	.	1r	.	1r	.	1r	.	1r	.	1r	.	4EE-/	.	1r	.	1r	.	1r	.
8E-\	.	.	8E-\	.	.	.	.	.	.	.	.	.	.	.	.	.	.	.	.	.	.	.	.	.	.	.	.	.	.	.	.	.	.	.	.	.	.	.	.	.
8E-\	.	.	8E-\	.	4e-\	.	4a-/	.	4cc\	.	.	.	.	.	.	.	.	.	.	.	.	.	.	.	.	.	.	.	.	.	.	.	4r	.	.	.	.	.	.	.
8E-\J	.	.	8E-\J	.	.	.	.	.	.	.	.	.	.	.	.	.	.	.	.	.	.	.	.	.	.	.	.	.	.	.	.	.	.	.	.	.	.	.	.	.
8E-\L	.	.	8E-\L	.	4r	.	4r	.	4r	.	.	.	.	2B-\	.	.	2f\	.	.	2dd\	.	.	.	.	.	.	.	.	.	.	.	.	4r	.	.	.	.	.	.	.
8E-\	.	.	8E-\	.	.	.	.	.	.	.	.	.	.	.	.	.	.	.	.	.	.	.	.	.	.	.	.	.	.	.	.	.	.	.	.	.	.	.	.	.
8E-\	.	.	8E-\	.	4f\	.	4b-/	.	4dd\	.	.	.	.	.	.	.	.	.	.	.	.	.	.	.	.	.	.	.	.	.	.	.	4E-\	.	.	.	.	.	.	.
8E-\J	.	.	8E-\J	.	.	.	.	.	.	.	.	.	.	.	.	.	.	.	.	.	.	.	.	.	.	.	.	.	.	.	.	.	.	.	.	.	.	.	.	.
*Xrep	*	*	*Xrep	*	*	*	*	*	*	*	*	*	*	*	*	*	*	*	*	*	*	*	*	*	*	*	*	*	*	*	*	*	*	*	*	*	*	*	*	*
*Xtremolo	*	*	*Xtremolo	*	*	*	*	*	*	*	*	*	*	*	*	*	*	*	*	*	*	*	*	*	*	*	*	*	*	*	*	*	*	*	*	*	*	*	*	*
!	!	!	!	!	!	!	!	!	!	!	!	!	!	!	!	!	!LO:LB:g=original	!	!	!	!	!	!	!	!LO:LB:g=original	!	!	!	!	!	!	!	!	!	!	!	!	!	!	!
=20	=20	=20	=20	=20	=20	=20	=20	=20	=20	=20	=20	=20	=20	=20	=20	=20	=20	=20	=20	=20	=20	=20	=20	=20	=20	=20	=20	=20	=20	=20	=20	=20	=20	=20	=20	=20	=20	=20	=20	=20
!	!	!LO:DY:a:t=ffor	!	!LO:DY:rj	!	!	!	!	!	!	!	!	!	!	!	!	!	!	!	!	!	!LO:DY:a	!	!LO:DY:rj	!	!LO:DY:rj	!	!LO:DY:rj	!	!LO:DY:rj	!	!LO:DY:rj	!	!LO:DY:rj	!	!LO:DY:rj	!	!LO:DY:rj	!	!LO:DY:rj
4E-\	.	ff	4E-\	ff	4B-/	.	4b-\	.	4ee-\	.	4G\	-li	.	4B-\	-li	.	4g\	-li	.	4ee-\	-li	f	4E-\	ff	8G/L	ff	8ee-\L	ff	4ee-\	ff	4g\	f	4E-\	ff	4ee-\	ff	4gg\	ff	4bb-\	ff
.	.	.	.	.	.	.	.	.	.	.	.	.	.	.	.	.	.	.	.	.	.	.	.	.	16G/L	.	16ee-\L	.	.	.	.	.	.	.	.	.	.	.	.	.
.	.	.	.	.	.	.	.	.	.	.	.	.	.	.	.	.	.	.	.	.	.	.	.	.	16G/JJ	.	16ee-\JJ	.	.	.	.	.	.	.	.	.	.	.	.	.
*	*	*	*	*	*tremolo	*	*tremolo	*	*tremolo	*	*	*	*	*	*	*	*	*	*	*	*	*	*	*	*	*	*	*	*	*	*	*	*	*	*	*	*	*	*	*
!	!	!	!	!	!	!LO:DY:rj	!LO:TX:t=P:problem=nad nutą cztery kropki	!LO:DY:rj	!LO:TX:t=P:problem=nad nutą cztery kropki	!LO:DY:rj	!	!	!	!	!	!	!	!	!	!	!	!	!	!	!	!	!	!	!	!	!	!	!	!	!	!	!	!	!	!
8E-\L	.	.	8E-\L	.	16B-/LL	ff	16gg\LL	ff	16eee-\LL	ff	8E-\L	et	f	4g\	et	f	4b-\	et	f	4ee-\	et	.	8E-\L	.	8G/L	.	8ee-\L	.	4ee-\	.	4g\	.	8E-\L	.	4r	.	4r	.	4r	.
.	.	.	.	.	16B-/	.	16gg\	.	16eee-\	.	.	.	.	.	.	.	.	.	.	.	.	.	.	.	.	.	.	.	.	.	.	.	.	.	.	.	.	.	.	.
8G\J	.	.	8G\J	.	16B-/	.	16gg\	.	16eee-\	.	8G\J	.	.	.	.	.	.	.	.	.	.	.	8E-\J	.	8G/J	.	8ee-\J	.	.	.	.	.	8G\J	.	.	.	.	.	.	.
.	.	.	.	.	16B-/JJ	.	16gg\JJ	.	16eee-\JJ	.	.	.	.	.	.	.	.	.	.	.	.	.	.	.	.	.	.	.	.	.	.	.	.	.	.	.	.	.	.	.
4B-\	.	.	4B-\	.	16b-\LL	.	16ff\LL	.	16ddd\LL	.	4B-\	ter-	.	4f\	ter-	.	4b-\	ter-	.	4dd\	ter-	.	4BB-/	.	4B-/	.	4ff\	.	4b-/	.	4g\	.	4B-\	.	4dd\	.	4ff\	.	4bbn\	.
.	.	.	.	.	16b-\	.	16ff\	.	16ddd\	.	.	.	.	.	.	.	.	.	.	.	.	.	.	.	.	.	.	.	.	.	.	.	.	.	.	.	.	.	.	.
.	.	.	.	.	16b-\	.	16ff\	.	16ddd\	.	.	.	.	.	.	.	.	.	.	.	.	.	.	.	.	.	.	.	.	.	.	.	.	.	.	.	.	.	.	.
.	.	.	.	.	16b-\	.	16ff\	.	16ddd\	.	.	.	.	.	.	.	.	.	.	.	.	.	.	.	.	.	.	.	.	.	.	.	.	.	.	.	.	.	.	.
8B-\L	.	.	8B-\L	.	16b-\	.	16ff\	.	16ddd\	.	4Bn\	-ra	.	4f\	-ra	.	4b-\	-ra	.	4dd\	-ra	.	4r	.	4r	.	4ryy	.	4r	.	4r	.	4Bn\	.	4dd\	.	4ff\	.	4bb\	.
.	.	.	.	.	16b-\	.	16ff\	.	16ddd\	.	.	.	.	.	.	.	.	.	.	.	.	.	.	.	.	.	.	.	.	.	.	.	.	.	.	.	.	.	.	.
8Bn\J	.	.	8Bn\J	.	16b-\	.	16ff\	.	16ddd\	.	.	.	.	.	.	.	.	.	.	.	.	.	.	.	.	.	.	.	.	.	.	.	.	.	.	.	.	.	.	.
.	.	.	.	.	16b-\JJ	.	16ff\JJ	.	16ddd\JJ	.	.	.	.	.	.	.	.	.	.	.	.	.	.	.	.	.	.	.	.	.	.	.	.	.	.	.	.	.	.	.
!LO:LB:g=original	!	!	!	!	!	!	!	!	!	!	!	!	!	!	!	!	!	!	!	!	!	!	!	!	!	!	!	!	!	!	!	!	!	!	!	!	!LO:LB:g=original	!	!	!
=21	=21	=21	=21	=21	=21	=21	=21	=21	=21	=21	=21	=21	=21	=21	=21	=21	=21	=21	=21	=21	=21	=21	=21	=21	=21	=21	=21	=21	=21	=21	=21	=21	=21	=21	=21	=21	=21	=21	=21	=21
4c\	.	.	4c\	.	16g\LL	.	16ee-\LL	.	16ccc\LL	.	4.c\	glo-	.	4.e-\	glo-	.	4.g\	glo-	.	4.cc\	glo-	.	1r	.	8G/L	.	8gg\L	.	4g/	.	4g\	.	4c\	.	4cc\	.	4ee-\	.	4ccc\	.
.	.	.	.	.	16g\	.	16ee-\	.	16ccc\	.	.	.	.	.	.	.	.	.	.	.	.	.	.	.	.	.	.	.	.	.	.	.	.	.	.	.	.	.	.	.
.	.	.	.	.	16g\	.	16ee-\	.	16ccc\	.	.	.	.	.	.	.	.	.	.	.	.	.	.	.	16G/L	.	16gg\L	.	.	.	.	.	.	.	.	.	.	.	.	.
.	.	.	.	.	16g\	.	16ee-\	.	16ccc\	.	.	.	.	.	.	.	.	.	.	.	.	.	.	.	16G/JJ	.	16gg\JJ	.	.	.	.	.	.	.	.	.	.	.	.	.
8C\L	.	.	8C\L	.	16g\	.	16ee-\	.	16ccc\	.	.	.	.	.	.	.	.	.	.	.	.	.	.	.	8G/L	.	8gg\L	.	8g/L	.	8g\L	.	8C\L	.	4r	.	4r	.	4r	.
.	.	.	.	.	16g\	.	16ee-\	.	16ccc\	.	.	.	.	.	.	.	.	.	.	.	.	.	.	.	.	.	.	.	.	.	.	.	.	.	.	.	.	.	.	.
8E-\J	.	.	8E-\J	.	16g\	.	16ee-\	.	16ccc\	.	8c\	-ri-	.	8e-\	-ri-	.	8g\	-ri-	.	8cc\	-ri-	.	.	.	8G/J	.	8gg\J	.	8g/J	.	8g\J	.	8E-\J	.	.	.	.	.	.	.
.	.	.	.	.	16g\JJ	.	16ee-\JJ	.	16ccc\JJ	.	.	.	.	.	.	.	.	.	.	.	.	.	.	.	.	.	.	.	.	.	.	.	.	.	.	.	.	.	.	.
4G\	.	.	4G\	.	16g\LL	.	16dd\LL	.	16bbn\LL	.	2G\	-a	.	2d\	-a	.	2g\	-a	.	2bn\	-a	.	.	.	4G/	.	4gg\	.	4g/	.	4g\	.	4G\	.	4bX\	.	4dd\	.	4gg\	.
.	.	.	.	.	16g\	.	16dd\	.	16bbn\	.	.	.	.	.	.	.	.	.	.	.	.	.	.	.	.	.	.	.	.	.	.	.	.	.	.	.	.	.	.	.
.	.	.	.	.	16g\	.	16dd\	.	16bbn\	.	.	.	.	.	.	.	.	.	.	.	.	.	.	.	.	.	.	.	.	.	.	.	.	.	.	.	.	.	.	.
.	.	.	.	.	16g\	.	16dd\	.	16bbn\	.	.	.	.	.	.	.	.	.	.	.	.	.	.	.	.	.	.	.	.	.	.	.	.	.	.	.	.	.	.	.
8G\L	.	.	8G\L	.	16g\	.	16dd\	.	16bbn\	.	.	.	.	.	.	.	.	.	.	.	.	.	.	.	4r	.	4r	.	4r	.	4r	.	8G\L	.	4b\	.	4dd\	.	4gg\	.
.	.	.	.	.	16g\	.	16dd\	.	16bbn\	.	.	.	.	.	.	.	.	.	.	.	.	.	.	.	.	.	.	.	.	.	.	.	.	.	.	.	.	.	.	.
8Bn\J	.	.	8Bn\J	.	16g\	.	16dd\	.	16bbn\	.	.	.	.	.	.	.	.	.	.	.	.	.	.	.	.	.	.	.	.	.	.	.	8Bn\J	.	.	.	.	.	.	.
.	.	.	.	.	16g\JJ	.	16dd\JJ	.	16bbn\JJ	.	.	.	.	.	.	.	.	.	.	.	.	.	.	.	.	.	.	.	.	.	.	.	.	.	.	.	.	.	.	.
!	!	!	!LO:LB:g=original	!	!	!	!LO:LB:g=original	!	!	!	!	!	!	!LO:LB:g=original	!	!	!	!	!	!	!	!	!	!	!	!	!	!	!	!	!	!	!	!	!LO:LB:g=original	!	!	!	!	!
=22	=22	=22	=22	=22	=22	=22	=22	=22	=22	=22	=22	=22	=22	=22	=22	=22	=22	=22	=22	=22	=22	=22	=22	=22	=22	=22	=22	=22	=22	=22	=22	=22	=22	=22	=22	=22	=22	=22	=22	=22
*	*	*	*	*	*	*	*	*	*	*	*	*ij	*	*	*ij	*	*	*ij	*	*	*ij	*	*	*	*	*	*	*	*	*	*	*	*	*	*	*	*	*	*	*
4c\	.	.	4c\	.	16a-\LL	.	16ee-\LL	.	16aa-\LL	.	4.A-\	glo-	.	4.e-\	glo-	.	4.a-\	glo-	.	4.cc\	glo-	.	4E-\	.	8E-/L	.	8ee-\L	.	4e-/	.	4e-\	.	4c\	.	4cc\	.	4ee-\	.	4aa-\	.
.	.	.	.	.	16a-\	.	16ee-\	.	16aa-\	.	.	.	.	.	.	.	.	.	.	.	.	.	.	.	.	.	.	.	.	.	.	.	.	.	.	.	.	.	.	.
.	.	.	.	.	16a-\	.	16ee-\	.	16aa-\	.	.	.	.	.	.	.	.	.	.	.	.	.	.	.	16E-/L	.	16ee-\L	.	.	.	.	.	.	.	.	.	.	.	.	.
.	.	.	.	.	16a-\	.	16ee-\	.	16aa-\	.	.	.	.	.	.	.	.	.	.	.	.	.	.	.	16E-/JJ	.	16ee-\JJ	.	.	.	.	.	.	.	.	.	.	.	.	.
8AA-/L	.	.	8AA-/L	.	16a-\	.	16ee-\	.	16aa-\	.	.	.	.	.	.	.	.	.	.	.	.	.	8E-\L	.	8E-/L	.	8ee-\L	.	8e-/L	.	8e-\L	.	8A-\L	.	4r	.	4r	.	4r	.
.	.	.	.	.	16a-\	.	16ee-\	.	16aa-\	.	.	.	.	.	.	.	.	.	.	.	.	.	.	.	.	.	.	.	.	.	.	.	.	.	.	.	.	.	.	.
8C/J	.	.	8C/J	.	16a-\	.	16ee-\	.	16aa-\	.	8A-\	-ri-	.	8e-\	-ri-	.	8a-\	-ri-	.	8cc\	-ri-	.	8E-\J	.	8E-/J	.	8ee-\J	.	8e-/J	.	8e-\J	.	8c\J	.	.	.	.	.	.	.
.	.	.	.	.	16a-\JJ	.	16ee-\JJ	.	16aa-\JJ	.	.	.	.	.	.	.	.	.	.	.	.	.	.	.	.	.	.	.	.	.	.	.	.	.	.	.	.	.	.	.
4E-\	.	.	4E-\	.	16e-\LL	.	16ee-\LL	.	16gg\LL	.	2E-\	-a	.	2e-\	-a	.	2g\	-a	.	2b-X\	-a	.	4E-\	.	4E-/	.	4ee-\	.	4e-/	.	4e-\	.	4e-\	.	4b-X\	.	4dd\	.	4ddd\	.
*	*	*	*	*	*	*	*	*	*	*	*	*Xij	*	*	*Xij	*	*	*Xij	*	*	*Xij	*	*	*	*	*	*	*	*	*	*	*	*	*	*	*	*	*	*	*
.	.	.	.	.	16e-\	.	16ee-\	.	16gg\	.	.	.	.	.	.	.	.	.	.	.	.	.	.	.	.	.	.	.	.	.	.	.	.	.	.	.	.	.	.	.
.	.	.	.	.	16e-\	.	16ee-\	.	16gg\	.	.	.	.	.	.	.	.	.	.	.	.	.	.	.	.	.	.	.	.	.	.	.	.	.	.	.	.	.	.	.
.	.	.	.	.	16e-\	.	16ee-\	.	16gg\	.	.	.	.	.	.	.	.	.	.	.	.	.	.	.	.	.	.	.	.	.	.	.	.	.	.	.	.	.	.	.
8E-\L	.	.	8E-\L	.	16e-\	.	16ee-\	.	16gg\	.	.	.	.	.	.	.	.	.	.	.	.	.	4r	.	4r	.	4r	.	4r	.	4r	.	4E-\	.	4b-\	.	4dd\	.	4ddd\	.
.	.	.	.	.	16e-\	.	16ee-\	.	16gg\	.	.	.	.	.	.	.	.	.	.	.	.	.	.	.	.	.	.	.	.	.	.	.	.	.	.	.	.	.	.	.
8G\J	.	.	8G\J	.	16e-\	.	16ee-\	.	16gg\	.	.	.	.	.	.	.	.	.	.	.	.	.	.	.	.	.	.	.	.	.	.	.	.	.	.	.	.	.	.	.
.	.	.	.	.	16e-\JJ	.	16ee-\JJ	.	16gg\JJ	.	.	.	.	.	.	.	.	.	.	.	.	.	.	.	.	.	.	.	.	.	.	.	.	.	.	.	.	.	.	.
=23	=23	=23	=23	=23	=23	=23	=23	=23	=23	=23	=23	=23	=23	=23	=23	=23	=23	=23	=23	=23	=23	=23	=23	=23	=23	=23	=23	=23	=23	=23	=23	=23	=23	=23	=23	=23	=23	=23	=23	=23
!LO:TX:b:t=Orga	!	!	!	!	!	!	!	!	!	!	!LO:TX:t=P:problem=płaski łuk	!	!	!	!	!	!	!	!	!	!	!	!	!	!	!	!	!	!	!	!	!	!	!	!	!	!	!	!	!
8A-\L	6 3	.	8A-\L	.	16f\LL	.	16cc\LL	.	16ff\LL	.	(4A-\	tu-	.	2f\	tu-	.	(4a-\	tu-	.	(4cc\	tu-	.	4BB-/	.	4B-/	.	4ff\	.	4b-/	.	4f\	.	8A-\L	.	4a-\	.	4cc\	.	4eee-\	.
.	.	.	.	.	16f\	.	16cc\	.	16ff\	.	.	.	.	.	.	.	.	.	.	.	.	.	.	.	.	.	.	.	.	.	.	.	.	.	.	.	.	.	.	.
!	!	!LO:DY:a	!	!LO:HP:a	!	!	!	!	!	!	!	!	!	!	!	!	!	!	!	!	!	!	!	!	!	!	!	!	!	!	!	!	!	!	!	!	!	!	!	!
8A-\	_ _	>	8A-\	>	16f\	.	16cc\	.	16ff\	.	.	.	.	.	.	.	.	.	.	.	.	.	.	.	.	.	.	.	.	.	.	.	8A-\	.	.	.	.	.	.	.
.	.	.	.	.	16f\JJ	.	16cc\	.	16ff\JJ	.	.	.	.	.	.	.	.	.	.	.	.	.	.	.	.	.	.	.	.	.	.	.	.	.	.	.	.	.	.	.
8An\	5 3	.	8An\	.	16B-/LL	.	16cc\	.	16ee-\LL	.	4An\	.	.	.	.	.	4b-\)	.	.	4ee-\	.	.	8BB-/L	.	8B-/L	.	8ff\L	.	8b-/L	.	8f\L	.	8An\	.	4cc\	.	4ff\	.	4fff\	.
.	.	.	.	.	16B-/	.	16cc\	.	16ee-\	.	.	.	.	.	.	.	.	.	.	.	.	.	.	.	.	.	.	.	.	.	.	.	.	.	.	.	.	.	.	.
8A\J	_ _	.	8A\J	.	16B-/	.	16cc\	.	16ee-\	.	.	.	.	.	.	.	.	.	.	.	.	.	8BB-/J	.	8B-/J	.	8ff\J	.	8b-/J	.	8f\J	.	8A\J	.	.	.	.	.	.	.
.	.	.	.	.	16B-/JJ	.	16cc\JJ	.	16ee-\JJ	.	.	.	.	.	.	.	.	.	.	.	.	.	.	.	.	.	.	.	.	.	.	.	.	.	.	.	.	.	.	.
*tremolo	*	*	*tremolo	*	*	*	*Xtremolo	*	*Xtremolo	*	*	*	*	*	*	*	*	*	*	*	*	*	*	*	*	*	*	*	*	*	*	*	*	*	*	*	*	*	*	*
8B-\L	x	]	8B-\L	]	4B-/	.	4dd\	.	4dd\	.	4B-\)	-a	.	4f\	-a	.	4b-\	-a	.	4dd\)	-a	.	4BB-/	.	4B-/	.	4ff\	.	4b-/	.	4f\	.	4B-\	.	4dd\	.	4ff\	.	4ddd\	.
8B-\	.	.	8B-\	.	.	.	.	.	.	.	.	.	.	.	.	.	.	.	.	.	.	.	.	.	.	.	.	.	.	.	.	.	.	.	.	.	.	.	.	.
8B-\	.	.	8B-\	.	4r	.	4r	.	4r	.	4r	.	.	4r	.	.	4r	.	.	4r	.	.	4r	.	4r	.	4r	.	4r	.	4r	.	4r	.	4r	.	4r	.	4r	.
8B-\J	.	.	8B-\J	.	.	.	.	.	.	.	.	.	.	.	.	.	.	.	.	.	.	.	.	.	.	.	.	.	.	.	.	.	.	.	.	.	.	.	.	.
=24	=24	=24	=24	=24	=24	=24	=24	=24	=24	=24	=24	=24	=24	=24	=24	=24	=24	=24	=24	=24	=24	=24	=24	=24	=24	=24	=24	=24	=24	=24	=24	=24	=24	=24	=24	=24	=24	=24	=24	=24
!LO:TX:t=P:problem=mixed beam	!	!	!LO:TX:t=P:problem=mixed beam	!	!	!LO:DY:rj	!	!LO:DY:rj	!	!	!LO:TX:a:i:t=Solo	!	!	!	!	!	!LO:TX:a:rj:i:t=Sol	!	!	!	!	!	!LO:TX:a:t=11	!	!	!	!	!	!	!	!	!	!	!LO:DY:rj	!LO:TX:a:t=9	!	!LO:TX:a:t=9	!	!LO:TX:a:t=9	!
8BB-/L	.	p	8BB-/L	p	8B-/L	p	2f/	p	(2a-/	p	(2F\	Ho-	.	1r	.	.	2a-\	Ho-	.	1r	.	.	00r	.	00r	.	00r	.	00r	.	00r	.	4BB-/	p	00r	.	00r	.	00r	.
8B-\	.	.	8B-\	.	8B-/	.	.	.	.	.	.	.	.	.	.	.	.	.	.	.	.	.	.	.	.	.	.	.	.	.	.	.	.	.	.	.	.	.	.	.
8B-\	.	.	8B-\	.	8B-/	.	.	.	.	.	.	.	.	.	.	.	.	.	.	.	.	.	.	.	.	.	.	.	.	.	.	.	4r	.	.	.	.	.	.	.
8B-\J	.	.	8B-\J	.	8B-/J	.	.	.	.	.	.	.	.	.	.	.	.	.	.	.	.	.	.	.	.	.	.	.	.	.	.	.	.	.	.	.	.	.	.	.
8B-\L	.	.	8B-\L	.	8B-/L	.	4en/	.	4g/)	.	4En\	.	.	.	.	.	(4g\	.	.	.	.	.	.	.	.	.	.	.	.	.	.	.	4B-\	.	.	.	.	.	.	.
8B-\	.	.	8B-\	.	8B-/	.	.	.	.	.	.	.	.	.	.	.	.	.	.	.	.	.	.	.	.	.	.	.	.	.	.	.	.	.	.	.	.	.	.	.
8B-\	.	.	8B-\	.	8B-/	.	4g/	.	4b-/	.	4G\)	.	.	.	.	.	4b-\)	.	.	.	.	.	.	.	.	.	.	.	.	.	.	.	4r	.	.	.	.	.	.	.
8B-\J	.	.	8B-\J	.	8B-/J	.	.	.	.	.	.	.	.	.	.	.	.	.	.	.	.	.	.	.	.	.	.	.	.	.	.	.	.	.	.	.	.	.	.	.
!	!	!	!	!	!LO:LB:g=original	!	!	!	!	!	!	!	!	!	!	!	!LO:LB:g=original	!	!	!	!	!	!	!	!	!	!	!	!	!	!	!	!LO:LB:g=original	!	!	!	!	!	!	!
=25	=25	=25	=25	=25	=25	=25	=25	=25	=25	=25	=25	=25	=25	=25	=25	=25	=25	=25	=25	=25	=25	=25	=25	=25	=25	=25	=25	=25	=25	=25	=25	=25	=25	=25	=25	=25	=25	=25	=25	=25
!	!	!	!	!	!	!	!	!	!	!	!	!	!	!	!	!LO:DY:a	!	!	!	!	!	!LO:DY:a	!	!	!	!	!	!	!	!	!	!	!	!	!	!	!	!	!	!
8B-\L	.	.	8B-\L	.	8B-/L	.	4f/	.	4a-/	.	4F\	-san-	.	2r	.	f	4a-\	-san-	.	2r	.	f	.	.	.	.	.	.	.	.	.	.	4BB-/	.	.	.	.	.	.	.
8B-\	.	.	8B-\	.	8B-/	.	.	.	.	.	.	.	.	.	.	.	.	.	.	.	.	.	.	.	.	.	.	.	.	.	.	.	.	.	.	.	.	.	.	.
8B-\	.	.	8B-\	.	8B-/	.	4d/	.	4f/	.	4D\	-na	.	.	.	.	4f\	-na	.	.	.	.	.	.	.	.	.	.	.	.	.	.	4r	.	.	.	.	.	.	.
8B-\J	.	.	8B-\J	.	8B-/J	.	.	.	.	.	.	.	.	.	.	.	.	.	.	.	.	.	.	.	.	.	.	.	.	.	.	.	.	.	.	.	.	.	.	.
8B-\L	.	.	8B-\L	.	8B-/L	.	2r	.	2r	.	2r	.	.	4r	.	.	2r	.	.	4r	.	.	.	.	.	.	.	.	.	.	.	.	2r	.	.	.	.	.	.	.
8B-\	.	.	8B-\	.	8B-/	.	.	.	.	.	.	.	.	.	.	.	.	.	.	.	.	.	.	.	.	.	.	.	.	.	.	.	.	.	.	.	.	.	.	.
!	!	!	!	!	!	!	!	!	!	!	!	!	!	!	!	!	!	!	!	!LO:TX:a:i:t=Solo	!	!	!	!	!	!	!	!	!	!	!	!	!	!	!	!	!	!	!	!
8B-\	.	.	8B-\	.	8B-/	.	.	.	.	.	.	.	.	8d\L	Ho-	.	.	.	.	8ff\L	Ho-	.	.	.	.	.	.	.	.	.	.	.	.	.	.	.	.	.	.	.
8B-\J	.	.	8B-\J	.	8B-/J	.	.	.	.	.	.	.	.	8e-\J	.	.	.	.	.	8gg\J	.	.	.	.	.	.	.	.	.	.	.	.	.	.	.	.	.	.	.	.
!	!	!	!	!	!	!	!	!	!	!	!	!	!	!	!	!	!	!	!	!LO:LB:g=original	!	!	!	!	!	!	!	!	!	!	!	!	!	!	!	!	!	!	!	!
=26	=26	=26	=26	=26	=26	=26	=26	=26	=26	=26	=26	=26	=26	=26	=26	=26	=26	=26	=26	=26	=26	=26	=26	=26	=26	=26	=26	=26	=26	=26	=26	=26	=26	=26	=26	=26	=26	=26	=26	=26
!LO:TX:t=P:problem=mixed beam	!	!	!LO:TX:t=P:problem=mixed beam	!	!	!	!	!	!	!	!	!	!	!	!	!	!	!	!	!	!	!	!	!	!	!	!	!	!	!	!	!	!	!	!	!	!	!	!	!
8BB-/L	.	.	8BB-/L	.	8B-/L	.	4ff\	.	4aa-\	.	0r	.	.	4.f\	-san-	.	0r	.	.	4.aa-\	-san-	.	.	.	.	.	.	.	.	.	.	.	4BB-/	.	.	.	.	.	.	.
8B-\	.	.	8B-\	.	8B-/	.	.	.	.	.	.	.	.	.	.	.	.	.	.	.	.	.	.	.	.	.	.	.	.	.	.	.	.	.	.	.	.	.	.	.
8B-\	.	.	8B-\	.	8B-/	.	4r	.	4r	.	.	.	.	.	.	.	.	.	.	.	.	.	.	.	.	.	.	.	.	.	.	.	4r	.	.	.	.	.	.	.
8B-\J	.	.	8B-\J	.	8B-/J	.	.	.	.	.	.	.	.	8e-\	-na	.	.	.	.	8gg\	-na	.	.	.	.	.	.	.	.	.	.	.	.	.	.	.	.	.	.	.
8B-\L	.	.	8B-\L	.	8B-/L	.	8dd\	.	8ff\	.	.	.	.	4d\	in	.	.	.	.	4ff\	in	.	.	.	.	.	.	.	.	.	.	.	4B-\	.	.	.	.	.	.	.
8B-\	.	.	8B-\	.	8B-/	.	8r	.	8r	.	.	.	.	.	.	.	.	.	.	.	.	.	.	.	.	.	.	.	.	.	.	.	.	.	.	.	.	.	.	.
8B-\	.	.	8B-\	.	8B-/	.	8cc\	.	8ee-\	.	.	.	.	4c\	ex-	.	.	.	.	4ee-\	ex-	.	.	.	.	.	.	.	.	.	.	.	4r	.	.	.	.	.	.	.
8B-\J	.	.	8B-\J	.	8B-/J	.	8r	.	8r	.	.	.	.	.	.	.	.	.	.	.	.	.	.	.	.	.	.	.	.	.	.	.	.	.	.	.	.	.	.	.
=27	=27	=27	=27	=27	=27	=27	=27	=27	=27	=27	=27	=27	=27	=27	=27	=27	=27	=27	=27	=27	=27	=27	=27	=27	=27	=27	=27	=27	=27	=27	=27	=27	=27	=27	=27	=27	=27	=27	=27	=27
8B-\L	.	.	8B-\L	.	8B-/L	.	8b-\	.	8dd\	.	.	.	.	(4B-\	-cel-	.	.	.	.	(4dd\	-cel-	.	.	.	.	.	.	.	.	.	.	.	4BB-/	.	.	.	.	.	.	.
8B-\	.	.	8B-\	.	8B-/	.	8r	.	8r	.	.	.	.	.	.	.	.	.	.	.	.	.	.	.	.	.	.	.	.	.	.	.	.	.	.	.	.	.	.	.
8B-\	.	.	8B-\	.	8B-/	.	8a-\	.	8cc\	.	.	.	.	4A-\)	.	.	.	.	.	4cc\	.	.	.	.	.	.	.	.	.	.	.	.	4r	.	.	.	.	.	.	.
8B-\J	.	.	8B-\J	.	8B-/J	.	8r	.	8r	.	.	.	.	.	.	.	.	.	.	.	.	.	.	.	.	.	.	.	.	.	.	.	.	.	.	.	.	.	.	.
!	!	!	!	!	!	!	!	!	!	!	!	!	!	!LO:LB:g=original	!	!	!	!	!	!	!	!	!	!	!	!	!	!	!	!	!	!	!	!	!	!	!	!	!	!
8B-\L	.	.	8BB-/L	.	8B-/L	.	8g/	.	8b-\	.	.	.	.	4G\	.	.	.	.	.	4b-\)	.	.	.	.	.	.	.	.	.	.	.	.	2r	.	.	.	.	.	.	.
8B-\	.	.	8BB-/	.	8B-/	.	8r	.	8r	.	.	.	.	.	.	.	.	.	.	.	.	.	.	.	.	.	.	.	.	.	.	.	.	.	.	.	.	.	.	.
8B-\	.	.	8BB-/	.	8B-/	.	8f#X/	.	8an/	.	.	.	.	4F#X/	-sis	.	.	.	.	4an\	-sis	.	.	.	.	.	.	.	.	.	.	.	.	.	.	.	.	.	.	.
8B-\J	.	.	8BB-/J	.	8B-/J	.	8r	.	8r	.	.	.	.	.	.	.	.	.	.	.	.	.	.	.	.	.	.	.	.	.	.	.	.	.	.	.	.	.	.	.
!	!	!	!	!	!	!	!LO:LB:g=original	!	!	!	!LO:LB:g=original	!	!	!	!	!	!	!	!	!	!	!	!	!	!	!	!	!	!	!	!	!	!	!	!	!	!	!	!	!
=28	=28	=28	=28!|:	=28	=28	=28	=28	=28	=28	=28	=28	=28	=28	=28	=28	=28	=28	=28	=28	=28	=28	=28	=28	=28	=28	=28	=28	=28	=28	=28	=28	=28	=28	=28	=28	=28	=28	=28	=28	=28
*	*	*	*	*	*	*	*	*	*	*	*	*ij	*	*	*	*	*	*	*	*	*	*	*	*	*	*	*	*	*	*	*	*	*	*	*	*	*	*	*	*
!LO:TX:t=P:problem=mixed beam	!	!	!LO:TX:t=P:problem=mixed beam	!	!	!	!	!	!	!	!	!	!	!	!	!	!	!	!	!	!	!	!	!	!	!	!	!	!	!	!	!	!	!	!	!	!	!	!	!
8EE-/L	.	.	8EE-/L	.	8e-\L	.	2g/	.	2b-/	.	2G\	Ho-	.	1r	.	.	2b-\	Ho-	.	1r	.	.	00r	.	00r	.	00r	.	00r	.	00r	.	4EE-/	.	00r	.	00r	.	00r	.
8E-\	.	.	8E-\	.	8e-\	.	.	.	.	.	.	.	.	.	.	.	.	.	.	.	.	.	.	.	.	.	.	.	.	.	.	.	.	.	.	.	.	.	.	.
8E-\	.	.	8E-\	.	8e-\	.	.	.	.	.	.	.	.	.	.	.	.	.	.	.	.	.	.	.	.	.	.	.	.	.	.	.	4r	.	.	.	.	.	.	.
8E-\J	.	.	8E-\J	.	8e-\J	.	.	.	.	.	.	.	.	.	.	.	.	.	.	.	.	.	.	.	.	.	.	.	.	.	.	.	.	.	.	.	.	.	.	.
8E-\L	.	.	8E-\L	.	8e-\L	.	4f#X/	.	4an/	.	4F#X\	.	.	.	.	.	(4an\	.	.	.	.	.	.	.	.	.	.	.	.	.	.	.	4E-\	.	.	.	.	.	.	.
8E-\	.	.	8E-\	.	8e-\	.	.	.	.	.	.	.	.	.	.	.	.	.	.	.	.	.	.	.	.	.	.	.	.	.	.	.	.	.	.	.	.	.	.	.
8E-\	.	.	8E-\	.	8e-\	.	4a-/	.	4cc/	.	4A-X\	.	.	.	.	.	4cc\)	.	.	.	.	.	.	.	.	.	.	.	.	.	.	.	4r	.	.	.	.	.	.	.
8E-\J	.	.	8E-\J	.	8e-\J	.	.	.	.	.	.	.	.	.	.	.	.	.	.	.	.	.	.	.	.	.	.	.	.	.	.	.	.	.	.	.	.	.	.	.
!LO:LB:g=original	!	!	!	!	!	!	!	!	!	!	!	!	!	!	!	!	!	!	!	!	!	!	!	!	!	!	!	!	!	!	!	!	!	!	!	!	!	!	!	!
=29	=29	=29	=29	=29	=29	=29	=29	=29	=29	=29	=29	=29	=29	=29	=29	=29	=29	=29	=29	=29	=29	=29	=29	=29	=29	=29	=29	=29	=29	=29	=29	=29	=29	=29	=29	=29	=29	=29	=29	=29
!	!	!	!	!	!	!	!	!	!	!	!	!	!	!LO:TX:t=P:problem=pauza ćwierćnutowa	!	!	!	!	!	!	!	!	!	!	!	!	!	!	!	!	!	!	!	!	!	!	!	!	!	!
8E-\L	.	.	8E-\L	.	8e-\L	.	4g/	.	4b-/	.	4G\	-san	.	2r	.	.	4b-\	-san-	.	2r	.	.	.	.	.	.	.	.	.	.	.	.	4EE-/	.	.	.	.	.	.	.
8E-\	.	.	8E-\	.	8e-\	.	.	.	.	.	.	.	.	.	.	.	.	.	.	.	.	.	.	.	.	.	.	.	.	.	.	.	.	.	.	.	.	.	.	.
8E-\	.	.	8E-\	.	8e-\	.	4e-/	.	4g/	.	4E-\	na	.	.	.	.	4g\	-na	.	.	.	.	.	.	.	.	.	.	.	.	.	.	4r	.	.	.	.	.	.	.
*	*	*	*	*	*	*	*	*	*	*	*	*Xij	*	*	*	*	*	*	*	*	*	*	*	*	*	*	*	*	*	*	*	*	*	*	*	*	*	*	*	*
8E-\J	.	.	8E-\J	.	8e-\J	.	.	.	.	.	.	.	.	.	.	.	.	.	.	.	.	.	.	.	.	.	.	.	.	.	.	.	.	.	.	.	.	.	.	.
8E-\L	.	.	8E-\L	.	8e-\L	.	2r	.	2r	.	2r	.	.	4r	.	.	2r	.	.	4r	.	.	.	.	.	.	.	.	.	.	.	.	2r	.	.	.	.	.	.	.
8E-\	.	.	8E-\	.	8e-\	.	.	.	.	.	.	.	.	.	.	.	.	.	.	.	.	.	.	.	.	.	.	.	.	.	.	.	.	.	.	.	.	.	.	.
8E-\	.	.	8E-\	.	8e-\	.	.	.	.	.	.	.	.	8e-\L	Ho-	.	.	.	.	8gg\L	Ho-	.	.	.	.	.	.	.	.	.	.	.	.	.	.	.	.	.	.	.
8E-\J	.	.	8E-\J	.	8e-\J	.	.	.	.	.	.	.	.	8f\J	.	.	.	.	.	8aa-\J	.	.	.	.	.	.	.	.	.	.	.	.	.	.	.	.	.	.	.	.
!	!	!	!	!	!	!	!	!	!LO:LB:g=original	!	!	!	!	!	!	!	!	!	!	!	!	!	!	!	!	!	!	!	!	!	!	!	!	!	!	!	!	!	!	!
=30	=30	=30	=30:|!	=30	=30	=30	=30	=30	=30	=30	=30	=30	=30	=30	=30	=30	=30	=30	=30	=30	=30	=30	=30	=30	=30	=30	=30	=30	=30	=30	=30	=30	=30	=30	=30	=30	=30	=30	=30	=30
!	!	!	!	!	!	!	!	!	!	!	!LO:TX:a:t=5	!	!	!	!	!	!LO:TX:a:t=5	!	!	!	!	!	!	!	!	!	!	!	!	!	!	!	!	!	!	!	!	!	!	!
!LO:TX:t=P:problem=mixed beam	!	!	!LO:TX:t=P:problem=mixed beam	!	!	!	!	!	!	!	!	!	!	!	!	!	!	!	!	!	!	!	!	!	!	!	!	!	!	!	!	!	!	!	!	!	!	!	!	!
8EE-/L	.	.	8EE-/Lyy	.	8e-\L	.	4gg\	.	4bb-\	.	00r	.	.	4.g\	-san-	.	00r	.	.	4.bb-\	-san-	.	.	.	.	.	.	.	.	.	.	.	4EE-/	.	.	.	.	.	.	.
8E-\	.	.	8E-\yy	.	8e-\	.	.	.	.	.	.	.	.	.	.	.	.	.	.	.	.	.	.	.	.	.	.	.	.	.	.	.	.	.	.	.	.	.	.	.
8E-\	.	.	8E-\yy	.	8e-\	.	4r	.	4r	.	.	.	.	.	.	.	.	.	.	.	.	.	.	.	.	.	.	.	.	.	.	.	4r	.	.	.	.	.	.	.
8E-\J	.	.	8E-\Jyy	.	8e-\J	.	.	.	.	.	.	.	.	8f\	-na	.	.	.	.	8aa-\	-na	.	.	.	.	.	.	.	.	.	.	.	.	.	.	.	.	.	.	.
8E-\L	.	.	8E-\Lyy	.	8e-\L	.	8ee-\	.	8gg\	.	.	.	.	4e-\	in	.	.	.	.	4gg\	in	.	.	.	.	.	.	.	.	.	.	.	4E-\	.	.	.	.	.	.	.
8E-\	.	.	8E-\yy	.	8e-\	.	8r	.	8r	.	.	.	.	.	.	.	.	.	.	.	.	.	.	.	.	.	.	.	.	.	.	.	.	.	.	.	.	.	.	.
8E-\	.	.	8E-\yy	.	8e-\	.	8dd\	.	8ff\	.	.	.	.	4d\	ex-	.	.	.	.	4ff\	ex-	.	.	.	.	.	.	.	.	.	.	.	4r	.	.	.	.	.	.	.
8E-\J	.	.	8E-\Jyy	.	8e-\J	.	8r	.	8r	.	.	.	.	.	.	.	.	.	.	.	.	.	.	.	.	.	.	.	.	.	.	.	.	.	.	.	.	.	.	.
=31	=31	=31	=31	=31	=31	=31	=31	=31	=31	=31	=31	=31	=31	=31	=31	=31	=31	=31	=31	=31	=31	=31	=31	=31	=31	=31	=31	=31	=31	=31	=31	=31	=31	=31	=31	=31	=31	=31	=31	=31
8E-\L	.	.	8E-\Lyy	.	8e-\L	.	8cc\	.	8ee-\	.	.	.	.	(4c\	-cel-	.	.	.	.	(4ee-\	-cae-	.	.	.	.	.	.	.	.	.	.	.	4EE-/	.	.	.	.	.	.	.
8E-\	.	.	8E-\yy	.	8e-\	.	8r	.	8r	.	.	.	.	.	.	.	.	.	.	.	.	.	.	.	.	.	.	.	.	.	.	.	.	.	.	.	.	.	.	.
8E-\	.	.	8E-\yy	.	8e-\	.	8b-\	.	8dd\	.	.	.	.	4B-\	.	.	.	.	.	4dd\	.	.	.	.	.	.	.	.	.	.	.	.	4r	.	.	.	.	.	.	.
8E-\J	.	.	8E-\Jyy	.	8e-\J	.	8r	.	8r	.	.	.	.	.	.	.	.	.	.	.	.	.	.	.	.	.	.	.	.	.	.	.	.	.	.	.	.	.	.	.
8E-\L	.	.	8E-\Lyy	.	8e-\L	.	8a-\	.	8cc\	.	.	.	.	4A-\)	.	.	.	.	.	4cc\)	.	.	.	.	.	.	.	.	.	.	.	.	2r	.	.	.	.	.	.	.
8E-\	.	.	8E-\yy	.	8e-\	.	8r	.	8r	.	.	.	.	.	.	.	.	.	.	.	.	.	.	.	.	.	.	.	.	.	.	.	.	.	.	.	.	.	.	.
8E-\	.	.	8E-\yy	.	8e-\	.	8g/	.	8b-\	.	.	.	.	4G\	-sis	.	.	.	.	4b-\	-sis	.	.	.	.	.	.	.	.	.	.	.	.	.	.	.	.	.	.	.
8E-\J	.	.	8E-\Jyy	.	8e-\J	.	8r	.	8r	.	.	.	.	.	.	.	.	.	.	.	.	.	.	.	.	.	.	.	.	.	.	.	.	.	.	.	.	.	.	.
*Xtremolo	*	*	*Xtremolo	*	*	*	*	*	*	*	*	*	*	*	*	*	*	*	*	*	*	*	*	*	*	*	*	*	*	*	*	*	*	*	*	*	*	*	*	*
=32	=32	=32	=32	=32	=32	=32	=32	=32	=32	=32	=32	=32	=32	=32	=32	=32	=32	=32	=32	=32	=32	=32	=32	=32	=32	=32	=32	=32	=32	=32	=32	=32	=32	=32	=32	=32	=32	=32	=32	=32
4BB-/	.	.	4BB-/	.	4B-/	.	4f/	.	4a-/	.	.	.	.	4F/	in	.	.	.	.	4a-\	in	.	0r	.	0r	.	0r	.	0r	.	0r	.	4BB-/	.	1r	.	1r	.	1r	.
4r	.	.	4r	.	4r	.	4r	.	4r	.	.	.	.	(16B-\LL	ex-	.	.	.	.	(16dd\LL	ex-	.	.	.	.	.	.	.	.	.	.	.	4r	.	.	.	.	.	.	.
.	.	.	.	.	.	.	.	.	.	.	.	.	.	16c\)	.	.	.	.	.	16ee-\	.	.	.	.	.	.	.	.	.	.	.	.	.	.	.	.	.	.	.	.
.	.	.	.	.	.	.	.	.	.	.	.	.	.	16B-\	.	.	.	.	.	16dd\	.	.	.	.	.	.	.	.	.	.	.	.	.	.	.	.	.	.	.	.
.	.	.	.	.	.	.	.	.	.	.	.	.	.	16c\JJ	.	.	.	.	.	16ee-\JJ)	.	.	.	.	.	.	.	.	.	.	.	.	.	.	.	.	.	.	.	.
!	!	!	!	!	!	!	!	!	!	!	!	!	!	!LO:LB:g=original	!	!	!	!	!	!	!	!	!	!	!	!	!	!	!	!	!	!	!	!	!	!	!	!	!	!
4B-\	.	.	4B-\	.	4B-/	.	4dd\	.	4ff\	.	.	.	.	4d\	-cel-	.	.	.	.	4ff\	-cel-	.	.	.	.	.	.	.	.	.	.	.	4BB-/	.	.	.	.	.	.	.
4r	.	.	4r	.	4r	.	4ryy	.	4ryy	.	.	.	.	(16d\LL	.	.	.	.	.	(16ee-\LL	.	.	.	.	.	.	.	.	.	.	.	.	4r	.	.	.	.	.	.	.
.	.	.	.	.	.	.	.	.	.	.	.	.	.	16e-\)	.	.	.	.	.	16gg\	.	.	.	.	.	.	.	.	.	.	.	.	.	.	.	.	.	.	.	.
.	.	.	.	.	.	.	.	.	.	.	.	.	.	(16d\	.	.	.	.	.	16ff\	.	.	.	.	.	.	.	.	.	.	.	.	.	.	.	.	.	.	.	.
.	.	.	.	.	.	.	.	.	.	.	.	.	.	16e-\JJ)	.	.	.	.	.	16gg\JJ)	.	.	.	.	.	.	.	.	.	.	.	.	.	.	.	.	.	.	.	.
!	!	!	!LO:LB:g=original	!	!	!	!	!	!	!	!	!	!	!	!	!	!	!	!	!	!	!	!	!	!	!	!	!	!	!	!	!	!	!	!	!	!	!	!	!
=33	=33	=33	=33	=33	=33	=33	=33	=33	=33	=33	=33	=33	=33	=33	=33	=33	=33	=33	=33	=33	=33	=33	=33	=33	=33	=33	=33	=33	=33	=33	=33	=33	=33	=33	=33	=33	=33	=33	=33	=33
2BB-/	5 3	.	2BB-/	.	4d\	.	4ff\	ff	4aa-\	.	.	.	.	4f\	-sis	.	.	.	.	4aa-\	-sis	.	.	.	.	.	.	.	.	.	.	.	2BB-/	.	4r	.	4r	.	4r	.
.	.	.	.	.	2d^\	.	2a-/	.	2cc^\	.	.	.	.	4r	.	.	.	.	.	4r	.	.	.	.	.	.	.	.	.	.	.	.	.	.	2aa-^\	.	(2ccc^\	.	2bb-^\	.
2D/	5 3	.	2D/	.	.	.	.	.	.	.	.	.	.	2r	.	.	.	.	.	2r	.	.	.	.	.	.	.	.	.	.	.	.	2D/	.	.	.	.	.	.	.
.	.	.	.	.	4r	.	8g/L	.	8b-\L	.	.	.	.	.	.	.	.	.	.	.	.	.	.	.	.	.	.	.	.	.	.	.	.	.	(8gg\L	.	8bb-\L	.	8ccc\L	.
.	.	.	.	.	.	.	8f/J	.	8a-\J	.	.	.	.	.	.	.	.	.	.	.	.	.	.	.	.	.	.	.	.	.	.	.	.	.	8ff\J)	.	8aa-\J)	.	8ddd\J	.
!	!	!	!	!	!	!	!LO:LB:g=original	!	!	!	!	!	!	!	!	!	!	!	!	!LO:LB:g=original	!	!	!	!	!	!	!	!	!	!	!	!	!	!	!	!	!	!	!LO:LB:g=original	!
=34	=34	=34	=34	=34	=34	=34	=34	=34	=34	=34	=34	=34	=34	=34	=34	=34	=34	=34	=34	=34	=34	=34	=34	=34	=34	=34	=34	=34	=34	=34	=34	=34	=34	=34	=34	=34	=34	=34	=34	=34
4E-\	3	.	4E-\	.	2r	.	8e-/L	.	(8g\L	.	1r	.	.	1r	.	.	1r	.	.	1r	.	.	1r	.	1r	.	1r	.	1r	.	1r	.	8E-\L	.	4ee-\	.	(8gg\L	.	4eee-\	.
.	.	.	.	.	.	.	8g/	.	8ee-\)	.	.	.	.	.	.	.	.	.	.	.	.	.	.	.	.	.	.	.	.	.	.	.	8G\	.	.	.	8ee-\)	.	.	.
4A-\	3	.	4A-\	.	.	.	8a-/	.	(8cc\	.	.	.	.	.	.	.	.	.	.	.	.	.	.	.	.	.	.	.	.	.	.	.	8A-\	.	4a-\	.	(8cc\	.	4fff\	.
.	.	.	.	.	.	.	8cc/J	.	8ff\J)	.	.	.	.	.	.	.	.	.	.	.	.	.	.	.	.	.	.	.	.	.	.	.	8An\J	.	.	.	8ff\J)	.	.	.
!	!	!	!	!	!	!	!	!	!LO:LB:g=original	!	!	!	!	!	!	!	!	!	!	!	!	!	!	!	!	!	!	!	!	!	!	!	!	!	!	!	!	!	!	!
4B-\	.	.	4B-\	.	4B-/	.	4g/	.	4ee-\	.	.	.	.	.	.	.	.	.	.	.	.	.	.	.	.	.	.	.	.	.	.	.	4B-\	.	4g\	.	4ee-\	.	4eee-\	.
4BB-/	.	.	4BB-/	.	4B-/	.	4f/	.	4dd\	.	.	.	.	.	.	.	.	.	.	.	.	.	.	.	.	.	.	.	.	.	.	.	4BB-/	.	4f\	.	4dd\	.	4ddd\	.
!	!	!	!	!	!LO:LB:g=original	!	!	!	!	!	!	!	!	!	!	!	!	!	!	!	!	!	!	!	!	!	!	!	!	!	!	!	!LO:LB:g=original	!	!	!	!	!	!	!
=35	=35	=35	=35	=35	=35	=35	=35	=35	=35	=35	=35	=35	=35	=35	=35	=35	=35	=35	=35	=35	=35	=35	=35	=35	=35	=35	=35!|:	=35	=35	=35	=35!|:	=35	=35	=35	=35	=35	=35	=35	=35	=35
*tremolo	*	*	*tremolo	*	*	*	*tremolo	*	*	*	*	*	*	*	*	*	*	*	*	*	*	*	*	*	*	*	*	*	*	*	*	*	*	*	*	*	*	*	*	*
!	!	!	!	!	!	!LO:DY:rj	!	!LO:DY:rj	!	!	!	!	!	!	!	!	!	!	!LO:DY:a	!	!	!	!	!LO:DY:rj	!	!LO:DY:rj	!	!LO:DY:rj	!	!LO:DY:rj	!	!LO:DY:rj	!	!LO:DY:rj	!	!LO:DY:rj	!	!	!	!
8E-\L	5 3	.	8E-\L	.	8e-\L	f	8B-/ 8g/L	f	4gg\	.	2r	.	.	2r	.	f	2r	.	f	2r	.	.	4E-\	f	4G/	f	4ee-\	f	4g/	f	4e-\	f	4E-\	f	4b-\	f	4gg\	f	4ggg\	.
8E-\	.	.	8E-\	.	8e-\	.	8B-/ 8g/	.	.	.	.	.	.	.	.	.	.	.	.	.	.	.	.	.	.	.	.	.	.	.	.	.	.	.	.	.	.	.	.	.
8E-\	.	.	8E-\	.	8e-\	.	8B-/ 8g/	.	4ee-\	.	.	.	.	.	.	.	.	.	.	.	.	.	4E-\	.	4G/	.	4ee-\	.	4g/	.	4e-\	.	4r	.	4b-\	.	4ee-\	.	4eee-\	.
8E-\J	.	.	8E-\J	.	8e-\J	.	8B-/ 8g/J	.	.	.	.	.	.	.	.	.	.	.	.	.	.	.	.	.	.	.	.	.	.	.	.	.	.	.	.	.	.	.	.	.
8G\L	6 4	.	8G\L	.	8e-\L	.	8B-/ 8g/L	.	8r	.	8r	.	f	8r	.	.	8r	.	.	8r	.	.	2r	.	8r	.	8r	.	8r	.	8r	.	4G\	.	4r	.	8r	.	8r	.
*	*	*	*	*	*	*	*	*	*	*	*	*ij	*	*	*	*	*	*	*	*	*	*	*	*	*	*	*	*	*	*	*	*	*	*	*	*	*	*	*	*
!	!	!	!	!	!	!	!	!	!	!	!	!	!	!	!	!	!	!	!	!	!	!LO:DY:a	!	!	!	!	!	!	!	!	!	!	!	!	!	!	!	!	!	!
8G\	.	.	8G\	.	8e-\	.	8B-/ 8g/	.	8ee-\L	.	(4E-\	Ho-	.	4.e-\	Ho-	.	4.b-\	Ho-	.	(8ee-\L	Ho-	f	.	.	8G/L	.	8ee-\L	.	8g/L	.	8e-\L	.	.	.	.	.	(8ee-\L	.	(8eee-\L	.
8G\	.	.	8G\	.	8e-\	.	8B-/ 8g/	.	8dd\	.	.	.	.	.	.	.	.	.	.	8dd\	.	.	.	.	8G/	.	8ee-\	.	8g/	.	8e-\	.	4r	.	4b-\	.	8dd\	.	8ddd\	.
8G\J	.	.	8G\J	.	8e-\J	.	8B-/ 8g/J	.	8ee-\J	.	8G\)	.	.	.	.	.	.	.	.	8ee-\J)	.	.	.	.	8G/J	.	8ee-\J	.	8g/J	.	8e-\J	.	.	.	.	.	8ee-\J)	.	8eee-\J)	.
!	!	!	!	!	!	!	!	!	!	!	!	!	!	!	!	!	!	!	!	!	!	!	!LO:LB:g=original	!	!	!	!	!	!	!	!LO:LB:g=original	!	!	!	!	!	!LO:LB:g=original	!	!	!
=36	=36	=36	=36	=36	=36	=36	=36	=36	=36	=36	=36	=36	=36	=36	=36	=36	=36	=36	=36	=36	=36	=36	=36	=36	=36	=36	=36:|!	=36	=36	=36	=36:|!	=36	=36	=36	=36	=36	=36	=36	=36	=36
!	!	!	!	!	!	!	!	!	!	!	!	!	!	!	!	!	!	!	!	!	!	!	!	!	!	!	!	!	!	!	!	!LO:DY:rj	!	!	!	!	!	!	!	!
8A-\L	5 3	.	8A-\L	.	8a-\L	.	8c/ 8a-/L	.	4dd\	.	4A-\	-san-	.	4e-\	-san-	.	4cc\	-san-	.	4dd\	-san-	.	4E-\	.	4E-/	.	4ee-\yy	.	4e-/	.	4e-\yy	fyy	4A-\	.	4b-\	.	4dd\	.	4ddd\	.
8A-\	.	.	8A-\	.	8a-\	.	8c/ 8a-/	.	.	.	.	.	.	.	.	.	.	.	.	.	.	.	.	.	.	.	.	.	.	.	.	.	.	.	.	.	.	.	.	.
8A-\	_ _	.	8A-\	.	8a-\	.	8c/ 8a-/	.	4cc\	.	4AA-/	-na	.	4e-\	-na	.	4a-\	-na	.	4cc\	-na	.	4E-\	.	4E-/	.	4ee-\yy	.	4e-/	.	4e-\yy	.	4r	.	4a-\	.	4cc\	.	4ccc\	.
*	*	*	*	*	*	*	*	*	*	*	*	*Xij	*	*	*	*	*	*	*	*	*	*	*	*	*	*	*	*	*	*	*	*	*	*	*	*	*	*	*	*
8A-\J	.	.	8A-\J	.	8a-\J	.	8c/ 8a-/J	.	.	.	.	.	.	.	.	.	.	.	.	.	.	.	.	.	.	.	.	.	.	.	.	.	.	.	.	.	.	.	.	.
!	!	!	!	!	!	!	!	!	!	!	!	!	!	!	!	!	!LO:LB:g=original	!	!	!	!	!	!	!	!	!	!	!	!	!	!	!	!	!	!	!	!	!	!	!
8A-\L	.	.	8A-\L	.	8a-\L	.	8c/L 8a-/	.	8r	.	8r	.	.	8r	.	.	8r	.	.	8r	.	.	2ryy	.	8r	.	8ryy	.	8r	.	8ryy	.	4A-\	.	8r	.	8r	.	8r	.
8A-\	.	.	8A-\	.	8a-\	.	8cc/	.	8ee-\L	.	4A-\	in	.	4e-\	in	.	8cc\L	in	.	8ee-\L	in	.	.	.	8E-/L	.	8ee-\Lyy	.	8e-/L	.	8e-\Lyy	.	.	.	8cc\L	.	(8ee-\L	.	(8eee-\L	.
8A-\	.	.	8A-\	.	8a-\	.	8b-/	.	8dd\	.	.	.	.	.	.	.	8b-\J	.	.	8dd\J	.	.	.	.	8E-/	.	8ee-\yy	.	8e-/	.	8e-\yy	.	4r	.	8b-\	.	8dd\	.	8ddd\	.
8A-\J	.	.	8A-\J	.	8a-\J	.	8a-/J	.	8cc\J	.	8A-\	ex-	.	8e-\	ex-	.	8a-\	ex-	.	8cc\	ex-	.	.	.	8E-/J	.	8ee-\Jyy	.	8e-/J	.	8e-\Jyy	.	.	.	8a-\J	.	8cc\J)	.	8ccc\J)	.
!	!	!	!	!	!	!	!	!	!	!	!	!	!	!	!	!	!	!	!	!	!	!	!	!	!LO:LB:g=original	!	!LO:LB:g=original	!	!LO:LB:g=original	!	!	!	!	!	!	!	!	!	!	!
=37	=37	=37	=37	=37	=37	=37	=37	=37	=37	=37	=37	=37	=37	=37	=37	=37	=37	=37	=37	=37	=37	=37	=37	=37	=37	=37	=37	=37	=37	=37	=37	=37	=37	=37	=37	=37	=37	=37	=37	=37
8B-\L	4	.	8B-\L	.	8e-\L	.	8B-/ 8g/L	.	4cc\	.	2B-\	-cel-	.	2.e-\	-cel-	.	4a-\	-cel-	.	(4cc\	-cel-	.	4E-\	.	4G/	.	4ee-\	.	4g/	.	4e-\	.	4B-\	.	4a-\	.	4cc\	.	4ccc\	.
8B-\	.	.	8B-\	.	8e-\	.	8B-/ 8g/	.	.	.	.	.	.	.	.	.	.	.	.	.	.	.	.	.	.	.	.	.	.	.	.	.	.	.	.	.	.	.	.	.
8B-\	.	.	8B-\	.	8e-\	.	8B-/ 8g/	.	4.b-^\	.	.	.	.	.	.	.	2g\	.	.	2b-\	.	.	4r	.	8.G/L	.	8.ee-\L	.	4r	.	4r	.	4r	.	4g\	.	4b-\	.	4.bb-\	.
8B-\J	.	.	8B-\J	.	8e-\J	.	8B-/ 8g/J	.	.	.	.	.	.	.	.	.	.	.	.	.	.	.	.	.	.	.	.	.	.	.	.	.	.	.	.	.	.	.	.	.
.	.	.	.	.	.	.	.	.	.	.	.	.	.	.	.	.	.	.	.	.	.	.	.	.	16G/Jk	.	16ee-\Jk	.	.	.	.	.	.	.	.	.	.	.	.	.
!	!	!	!	!	!	!	!	!	!	!	!	!	!	!	!	!	!	!	!	!	!	!	!	!	!	!	!	!	!	!	!	!	!	!	!LO:LB:g=original	!	!	!	!	!
8BB-/L	3	.	8BB-/L	.	8f\L	.	8B-/ 8a-/L	.	.	.	2BB-/	.	.	.	.	.	.	.	.	.	.	.	4BB-/	.	4B-/	.	4ff\	.	4b-/	.	4f\	.	4BB-/	.	8r	.	8r	.	.	.
8BB-/	.	.	8BB-/	.	8f\	.	8B-/ 8a-/	.	8b-\L	.	.	.	.	.	.	.	.	.	.	.	.	.	.	.	.	.	.	.	.	.	.	.	.	.	(8g/L	.	(8b-\L	.	(8bb-\L	.
8BB-/	.	.	8BB-/	.	8f\	.	8B-/ 8a-/	.	8cc\	.	.	.	.	4f\	.	.	4a-\	.	.	4dd\)	.	.	4r	.	8.B-/L	.	8.ff\L	.	4r	.	4r	.	4r	.	8a-/	.	8cc\	.	8ccc\	.
8BB-/J	.	.	8BB-/J	.	8f\J	.	8B-/ 8a-/J	.	8dd\J	.	.	.	.	.	.	.	.	.	.	.	.	.	.	.	.	.	.	.	.	.	.	.	.	.	8f/J)	.	8dd\J)	.	8ddd\J)	.
.	.	.	.	.	.	.	.	.	.	.	.	.	.	.	.	.	.	.	.	.	.	.	.	.	16B-/Jk	.	16ff\Jk	.	.	.	.	.	.	.	.	.	.	.	.	.
!	!	!	!	!	!	!	!	!	!	!	!	!	!	!LO:LB:g=original	!	!	!	!	!	!	!	!	!	!	!	!	!	!	!	!	!	!	!	!	!	!	!	!	!	!
=38	=38	=38	=38	=38	=38	=38	=38	=38	=38	=38	=38	=38	=38	=38	=38	=38	=38	=38	=38	=38	=38	=38	=38	=38	=38	=38	=38	=38	=38	=38	=38	=38	=38	=38	=38	=38	=38	=38	=38	=38
8E-\L	.	.	8E-\L	.	8e-\L	.	8B-/ 8g/L	.	4ee-\	.	4E-\	-sis	.	4g\	-sis	.	4g\	-sis	.	4ee-\	-sis	.	4E-\	.	4e-\	.	4gg\	.	4ee-\	.	4g\	.	4E-\	.	4g/	.	4ee-\	.	4eee-\	.
8E-\	.	.	8E-\	.	8e-\	.	8B-/ 8g/	.	.	.	.	.	.	.	.	.	.	.	.	.	.	.	.	.	.	.	.	.	.	.	.	.	.	.	.	.	.	.	.	.
8E-\	.	.	8E-\	.	8e-\	.	8B-/ 8g/	.	4gg\	.	4r	.	.	4r	.	.	4r	.	.	4r	.	.	4E-\	.	4G/	.	4ee-\	.	4g/	.	4e-\	.	4r	.	4b-/	.	4gg\	.	4ggg\	.
8E-\J	.	.	8E-\J	.	8e-\J	.	8B-/ 8g/J	.	.	.	.	.	.	.	.	.	.	.	.	.	.	.	.	.	.	.	.	.	.	.	.	.	.	.	.	.	.	.	.	.
8G\L	6 3	.	8G\L	.	8e-\L	.	8B-/ 8g/L	.	8r	.	8r	.	.	8r	.	.	8r	.	.	8r	.	.	2r	.	8r	.	8r	.	8r	.	8r	.	4G\	.	4r	.	8r	.	8r	.
*	*	*	*	*	*	*	*	*	*	*	*	*	*	*	*	*	*	*	*	*	*	*	*	*	*tremolo	*	*	*	*	*	*	*	*	*	*	*	*	*	*	*
8G\	.	.	8G\	.	8e-\	.	8B-/ 8g/	.	8ee-\L	.	(4E-\	Ho-	.	4.e-\	Ho-	.	4.b-\	Ho-	.	8ee-\L	Ho-	.	.	.	8G/L	.	8ee-\L	.	8g/L	.	8e-\L	.	.	.	.	.	8ee-\L	.	(8eee-\L	.
8G\	.	.	8G\	.	8e-\	.	8B-/ 8g/	.	8dd\	.	.	.	.	.	.	.	.	.	.	(8dd\	.	.	.	.	8G/	.	8ee-\	.	8g/	.	8e-\	.	4r	.	4b-\	.	8dd\	.	8fff\	.
8G\J	.	.	8G\J	.	8e-\J	.	8B-/ 8g/J	.	8ee-\J	.	8G\)	.	.	.	.	.	.	.	.	8ee-\J)	.	.	.	.	8G/J	.	8ee-\J	.	8g/J	.	8e-\J	.	.	.	.	.	8ee-\J	.	8eee-\J)	.
*	*	*	*	*	*	*	*	*	*	*	*	*	*	*	*	*	*	*	*	*	*	*	*	*	*Xtremolo	*	*	*	*	*	*	*	*	*	*	*	*	*	*	*
!LO:LB:g=original	!	!	!	!	!	!	!	!	!	!	!	!	!	!	!	!	!	!	!	!	!	!	!	!	!	!	!	!	!	!	!	!	!	!	!	!	!	!	!LO:LB:g=original	!
=39	=39	=39	=39	=39	=39	=39	=39	=39	=39	=39	=39	=39	=39	=39	=39	=39	=39	=39	=39	=39	=39	=39	=39	=39	=39	=39	=39	=39	=39	=39	=39	=39	=39	=39	=39	=39	=39	=39	=39	=39
8A-\L	7 3	.	8A-\L	.	8A-/L	.	8c/ 8a-/L	.	4dd\	.	4A-\	-san-	.	4e-\	-san-	.	4a-\	-san-	.	4ee-\	-san-	.	4E-\	.	4E-/	.	4ee-\	.	4e-/	.	4e-\	.	4A-\	.	4b-\	.	4dd\	.	4ddd\	.
8A-\	_ _	.	8A-\	.	8A-/	.	8c/ 8a-/	.	.	.	.	.	.	.	.	.	.	.	.	.	.	.	.	.	.	.	.	.	.	.	.	.	.	.	.	.	.	.	.	.
8A-\	.	.	8A-\	.	8A-/	.	8c/ 8a-/	.	4cc\	.	4AA-/	-na	.	4e-\	-na	.	4a-\	-na	.	4dd\	-na	.	4E-\	.	4E-/	.	4ee-\	.	4e-/	.	4e-\	.	4r	.	4a-\	.	4cc\	.	4ccc\	.
8A-\J	.	.	8A-\J	.	8A-/J	.	8c/ 8a-/J	.	.	.	.	.	.	.	.	.	.	.	.	.	.	.	.	.	.	.	.	.	.	.	.	.	.	.	.	.	.	.	.	.
!	!	!	!	!	!	!	!	!	!LO:LB:g=original	!	!	!	!	!	!	!	!	!	!	!	!	!	!	!	!	!	!	!	!	!	!	!	!	!	!	!	!	!	!	!
!	!	!	!	!	!LO:TX:t=P:problem=mixed beam	!	!	!	!	!	!	!	!	!	!	!	!	!	!	!	!	!	!	!	!	!	!	!	!	!	!	!	!	!	!	!	!	!	!	!
8A-\L	.	.	8A-\L	.	8A-/L	.	8c/L 8a-/	.	8r	.	8r	.	.	4r	.	.	8r	.	.	8r	.	.	2r	.	8r	.	8r	.	8r	.	8r	.	4A-\	.	8r	.	8r	.	8r	.
8A-\	.	.	8A-\	.	8e-\	.	8cc/	.	8ee-\L	.	4A-\	in	.	.	.	.	8cc\L	in	.	8ee-\L	in	.	.	.	8E-/L	.	8ee-\L	.	8e-/L	.	8e-\L	.	.	.	8cc\L	.	(8ee-\L	.	(8eee-\L	.
8A-\	.	.	8A-\	.	8d\	.	8b-/	.	8dd\	.	.	.	.	8e-\	in	.	8b-\J	.	.	8dd\J	.	.	.	.	8E-/	.	8ee-\	.	8e-/	.	8e-\	.	4r	.	8b-\	.	8dd\	.	8ddd\	.
8A-\J	.	.	8A-\J	.	8c\J	.	8a-/J	.	8cc\J	.	8A-\	ex-	.	8e-\	ex-	.	8a-\	ex-	.	8cc\	ex-	.	.	.	8E-/J	.	8ee-\J	.	8e-/J	.	8e-\J	.	.	.	8a-\J	.	8cc\J)	.	8ccc\J)	.
!	!	!	!	!	!	!	!	!	!	!	!LO:LB:g=original	!	!	!	!	!	!	!	!	!	!	!	!	!	!	!	!	!	!	!	!	!	!	!	!	!	!	!	!	!
=40	=40	=40	=40	=40	=40	=40	=40	=40	=40	=40	=40	=40	=40	=40	=40	=40	=40	=40	=40	=40	=40	=40	=40	=40	=40	=40	=40	=40	=40	=40	=40	=40	=40	=40	=40	=40	=40	=40	=40	=40
8B-\L	4	.	8B-\L	.	4c/	.	4a-/	.	4cc\	.	2B-\	-cel-	.	(2.e-\	-cel-	.	4a-\	-cel-	.	(4cc\	-cel-	.	4E-\	.	4G/	.	4ee-\	.	4g/	.	4e-\	.	4B-\	.	4a-\	.	4cc\	.	4ccc\	.
8B-\	.	.	8B-\	.	.	.	.	.	.	.	.	.	.	.	.	.	.	.	.	.	.	.	.	.	.	.	.	.	.	.	.	.	.	.	.	.	.	.	.	.
8B-\	.	.	8B-\	.	4B-/	.	4g/	.	4.b-\	.	.	.	.	.	.	.	2g\	.	.	2b-\	.	.	4r	.	8.G/L	.	8.ee-\L	.	4r	.	4r	.	4r	.	4g\	.	4b-\	.	4bb-\	.
8B-\J	.	.	8B-\J	.	.	.	.	.	.	.	.	.	.	.	.	.	.	.	.	.	.	.	.	.	.	.	.	.	.	.	.	.	.	.	.	.	.	.	.	.
.	.	.	.	.	.	.	.	.	.	.	.	.	.	.	.	.	.	.	.	.	.	.	.	.	16G/Jk	.	16ee-\Jk	.	.	.	.	.	.	.	.	.	.	.	.	.
8BB-/L	3	.	8BB-/L	.	8d\L	.	8B-/ 8a-/L	.	.	.	2BB-/	.	.	.	.	.	.	.	.	.	.	.	4BB-/	.	4B-/	.	4ff\	.	4dd/	.	4f\	.	4BB-/	.	8r	.	8r	.	8r	.
8BB-/	.	.	8BB-/	.	8d\	.	8B-/ 8a-/	.	8b-\L	.	.	.	.	.	.	.	.	.	.	.	.	.	.	.	.	.	.	.	.	.	.	.	.	.	(8g\L	.	8b-\L	.	(8bb-\L	.
8BB-/	.	.	8BB-/	.	8d\	.	8B-/ 8a-/	.	8cc\	.	.	.	.	4f\)	.	.	4a-\	.	.	4dd\)	.	.	4r	.	8.B-/L	.	8.ff\L	.	4r	.	4ryy	.	4r	.	8a-\	.	8cc\	.	8ccc\	.
8BB-/J	.	.	8BB-/J	.	8d\J	.	8B-/ 8a-/J	.	8dd\J	.	.	.	.	.	.	.	.	.	.	.	.	.	.	.	.	.	.	.	.	.	.	.	.	.	8f\J)	.	8dd\J	.	8ddd\J)	.
.	.	.	.	.	.	.	.	.	.	.	.	.	.	.	.	.	.	.	.	.	.	.	.	.	16B-/Jk	.	16ff\Jk	.	.	.	.	.	.	.	.	.	.	.	.	.
*Xtremolo	*	*	*Xtremolo	*	*Xtremolo	*	*Xtremolo	*	*	*	*	*	*	*	*	*	*	*	*	*	*	*	*	*	*	*	*	*	*	*	*	*	*	*	*	*	*	*	*	*
!	!	!	!	!	!	!	!LO:LB:g=original	!	!	!	!	!	!	!	!	!	!LO:LB:g=original	!	!	!	!	!	!	!	!	!	!	!	!	!	!	!	!	!	!	!	!	!	!	!
=41	=41	=41	=41	=41	=41	=41	=41	=41	=41	=41	=41	=41	=41	=41	=41	=41	=41	=41	=41	=41	=41	=41	=41	=41	=41	=41	=41	=41	=41	=41	=41	=41	=41	=41	=41	=41	=41	=41	=41	=41
4E-\	.	.	4E-\	.	4e-\	.	4B-/ 4g/	.	4ee-\	.	4E-\	-sis	.	4g\	-sis	.	4g\	-sis	.	4ee-\	-sis	.	4E-\	.	4G/	.	4ee-\	.	4g/	.	4e-\	.	4E-\	.	4g/	.	4ee-\	.	4eee-\	.
*	*	*	*	*	*	*	*	*	*Xtuplet	*	*	*	*	*	*	*	*	*	*	*	*	*	*	*	*	*	*	*	*	*	*	*	*	*	*	*	*	*	*	*
4r	.	.	4r	.	4r	.	4r	.	(12eee-'\L	.	4G\	Ho-	.	4e-\	Ho-	.	4b-\	Ho-	.	4gg\	Ho-	.	4r	.	4r	.	4r	.	4r	.	4r	.	4r	.	4r	.	4r	.	4r	.
.	.	.	.	.	.	.	.	.	12ddd'\	.	.	.	.	.	.	.	.	.	.	.	.	.	.	.	.	.	.	.	.	.	.	.	.	.	.	.	.	.	.	.
.	.	.	.	.	.	.	.	.	12ccc'\J	.	.	.	.	.	.	.	.	.	.	.	.	.	.	.	.	.	.	.	.	.	.	.	.	.	.	.	.	.	.	.
4E-\	.	.	4E-\	.	4e-\	.	4B-/ 4g/	.	12bb-'\L	.	2G\	-san-	.	2e-\	-san-	.	2a-\	-san-	.	2gg\	-san-	.	2r	.	2r	.	2r	.	2r	.	2r	.	4B-\	.	4b-\	.	4ee-\	.	4gg\	.
.	.	.	.	.	.	.	.	.	12aa-'\	.	.	.	.	.	.	.	.	.	.	.	.	.	.	.	.	.	.	.	.	.	.	.	.	.	.	.	.	.	.	.
.	.	.	.	.	.	.	.	.	12gg'\J	.	.	.	.	.	.	.	.	.	.	.	.	.	.	.	.	.	.	.	.	.	.	.	.	.	.	.	.	.	.	.
4G\	.	.	4G\	.	4e-\	.	4B-/ 4g/	.	12ff'\L	.	.	.	.	.	.	.	.	.	.	.	.	.	.	.	.	.	.	.	.	.	.	.	4G\	.	4b-\	.	4ee-\	.	4gg\	.
.	.	.	.	.	.	.	.	.	12ee-'\	.	.	.	.	.	.	.	.	.	.	.	.	.	.	.	.	.	.	.	.	.	.	.	.	.	.	.	.	.	.	.
.	.	.	.	.	.	.	.	.	12dd'\J)	.	.	.	.	.	.	.	.	.	.	.	.	.	.	.	.	.	.	.	.	.	.	.	.	.	.	.	.	.	.	.
!	!	!	!	!	!	!	!	!	!	!	!	!	!	!	!	!	!	!	!	!	!	!	!	!	!	!	!	!	!	!	!	!	!	!	!	!	!LO:LB:g=original	!	!	!
=42	=42	=42	=42	=42	=42	=42	=42	=42	=42	=42	=42	=42	=42	=42	=42	=42	=42	=42	=42	=42	=42	=42	=42	=42	=42	=42	=42	=42	=42	=42	=42	=42	=42	=42	=42	=42	=42	=42	=42	=42
4A-\	6 3	.	4A-\	.	4a-\	.	4c/ 4f/	.	8cc\L	.	4A-\	-na	.	2c\	-na	.	2a-\	-na	.	2ff\	-na	.	1r	.	1r	.	1r	.	1r	.	1r	.	4A-\	.	4cc\	.	4ff\	.	4aa-\	.
.	.	.	.	.	.	.	.	.	16dd\L	.	.	.	.	.	.	.	.	.	.	.	.	.	.	.	.	.	.	.	.	.	.	.	.	.	.	.	.	.	.	.
.	.	.	.	.	.	.	.	.	16een\JJ	.	.	.	.	.	.	.	.	.	.	.	.	.	.	.	.	.	.	.	.	.	.	.	.	.	.	.	.	.	.	.
4r	.	.	4r	.	4r	.	4r	.	16ff'\LL	.	4r	.	.	.	.	.	.	.	.	.	.	.	.	.	.	.	.	.	.	.	.	.	4r	.	4r	.	4r	.	4r	.
.	.	.	.	.	.	.	.	.	16gg'\	.	.	.	.	.	.	.	.	.	.	.	.	.	.	.	.	.	.	.	.	.	.	.	.	.	.	.	.	.	.	.
.	.	.	.	.	.	.	.	.	16aa-'\	.	.	.	.	.	.	.	.	.	.	.	.	.	.	.	.	.	.	.	.	.	.	.	.	.	.	.	.	.	.	.
.	.	.	.	.	.	.	.	.	16bb-'\JJ	.	.	.	.	.	.	.	.	.	.	.	.	.	.	.	.	.	.	.	.	.	.	.	.	.	.	.	.	.	.	.
2r	.	.	2r	.	2r	.	2r	.	4ccc\	.	2r	.	.	2r	.	.	2r	.	.	2r	.	.	.	.	.	.	.	.	.	.	.	.	2r	.	2r	.	2r	.	2r	.
.	.	.	.	.	.	.	.	.	4r	.	.	.	.	.	.	.	.	.	.	.	.	.	.	.	.	.	.	.	.	.	.	.	.	.	.	.	.	.	.	.
!	!	!	!	!	!	!	!	!	!LO:LB:g=original	!	!	!	!	!LO:LB:g=original	!	!	!	!	!	!	!	!	!	!	!	!	!	!	!	!	!	!	!	!	!	!	!	!	!	!
=43	=43	=43	=43	=43	=43	=43	=43	=43	=43	=43	=43	=43	=43	=43	=43	=43	=43	=43	=43	=43	=43	=43	=43	=43	=43	=43	=43	=43	=43	=43	=43	=43	=43	=43	=43	=43	=43	=43	=43	=43
4B-\	6 4	.	4B-\	.	4e-\	.	4B-/ 4g/	.	12b-'\L	.	4B-\	in	.	4e-\	in	.	4g\	in	.	4b-\	in	.	4E-\	.	4G/	.	4ee-\	.	4g/	.	4f\	.	4B-\	.	4ee-\	.	4gg\	.	4bb-\	.
.	.	.	.	.	.	.	.	.	12bb-'\	.	.	.	.	.	.	.	.	.	.	.	.	.	.	.	.	.	.	.	.	.	.	.	.	.	.	.	.	.	.	.
.	.	.	.	.	.	.	.	.	12aa-'\J	.	.	.	.	.	.	.	.	.	.	.	.	.	.	.	.	.	.	.	.	.	.	.	.	.	.	.	.	.	.	.
4r	.	.	4r	.	4r	.	4r	.	12gg'\L	.	4B-\	ex-	.	4e-\	ex-	.	4g\	ex-	.	4b-\	ex-	.	4r	.	4r	.	4r	.	4r	.	4r	.	4r	.	4r	.	4r	.	4r	.
.	.	.	.	.	.	.	.	.	12ff'\	.	.	.	.	.	.	.	.	.	.	.	.	.	.	.	.	.	.	.	.	.	.	.	.	.	.	.	.	.	.	.
.	.	.	.	.	.	.	.	.	12ee-'\J	.	.	.	.	.	.	.	.	.	.	.	.	.	.	.	.	.	.	.	.	.	.	.	.	.	.	.	.	.	.	.
4BB-/	5 3	.	4BB-/	.	4f\	.	4B-/ 4a-/	.	12dd\L	.	2BB-/	-cel-	.	2f\	-cel-	.	2b-\	-cel-	.	2dd\	-cel-	.	4.BB-/	.	4B-/	.	4ff\	.	4b-/	.	4f\	.	4BB-/	.	4dd\	.	4aa-\	.	4aa-\	.
.	.	.	.	.	.	.	.	.	12cc\	.	.	.	.	.	.	.	.	.	.	.	.	.	.	.	.	.	.	.	.	.	.	.	.	.	.	.	.	.	.	.
.	.	.	.	.	.	.	.	.	12b-\J	.	.	.	.	.	.	.	.	.	.	.	.	.	.	.	.	.	.	.	.	.	.	.	.	.	.	.	.	.	.	.
!	!	!	!LO:TX:t=P:problem=brak ostatniej wartości w takcie	!	!	!	!	!	!	!	!	!	!	!	!	!	!	!	!	!	!	!	!	!	!	!	!	!	!	!	!	!	!	!	!LO:TX:t=P:problem=takt 43 zdublowany i wykreślony 	!	!	!	!	!
4r	.	.	4BB-/yy	.	4f\	.	4B-/ 4a-/	.	12a-/L	.	.	.	.	.	.	.	.	.	.	.	.	.	.	.	4B-/	.	4ff\	.	4b-/	.	4f\	.	4BB-/	.	4a-\	.	4dd\	.	4aa-\	.
.	.	.	.	.	.	.	.	.	12g/	.	.	.	.	.	.	.	.	.	.	.	.	.	.	.	.	.	.	.	.	.	.	.	.	.	.	.	.	.	.	.
.	.	.	.	.	.	.	.	.	.	.	.	.	.	.	.	.	.	.	.	.	.	.	8BB-/	.	.	.	.	.	.	.	.	.	.	.	.	.	.	.	.	.
.	.	.	.	.	.	.	.	.	12f/J	.	.	.	.	.	.	.	.	.	.	.	.	.	.	.	.	.	.	.	.	.	.	.	.	.	.	.	.	.	.	.
!	!	!	!	!	!LO:LB:g=original	!	!	!	!	!	!	!	!	!	!	!	!	!	!	!	!	!	!	!	!	!	!	!	!	!	!	!	!	!	!LO:LB:g=original	!	!	!	!	!
=44	=44	=44	=44	=44	=44	=44	=44	=44	=44	=44	=44	=44	=44	=44	=44	=44	=44	=44	=44	=44	=44	=44	=44	=44	=44	=44	=44	=44	=44	=44	=44	=44	=44	=44	=44	=44	=44	=44	=44	=44
!LO:TX:a:t=unis	!	!	!	!	!	!	!	!	!	!	!	!	!	!	!	!	!	!	!	!	!	!	!	!	!	!	!	!	!	!	!	!	!	!	!	!	!	!	!	!
4.E-\	.	.	4.E-\	.	4e-\	.	4B-/ 4g/	.	4e-/	.	4E-\	-sis	.	4g\	-sis	.	4b-\	-sis	.	4ee-\	-sis	.	4E-\	.	4G/	.	4ee-\	.	4g/	.	4e-\	.	2E-\	.	4g/	.	4ee-\	.	4gg\	.
.	.	.	.	.	4r	.	4r	.	4r	.	4r	.	.	4r	.	.	4r	.	.	4r	.	.	4r	.	4r	.	4r	.	4r	.	4r	.	.	.	4r	.	4r	.	4r	.
16D\LL	.	.	16D\LL	.	.	.	.	.	.	.	.	.	.	.	.	.	.	.	.	.	.	.	.	.	.	.	.	.	.	.	.	.	.	.	.	.	.	.	.	.
16C\JJ	.	.	16C\JJ	.	.	.	.	.	.	.	.	.	.	.	.	.	.	.	.	.	.	.	.	.	.	.	.	.	.	.	.	.	.	.	.	.	.	.	.	.
8BB-/L	.	.	8BB-\L	.	4.G/ 4.e-/	.	4.B-/ 4.g/	.	4.g/ 4.ee-/	.	2r	.	.	2r	.	.	2r	.	.	2r	.	.	4.E-\	.	4.E-/	.	4g/	.	4.g/	.	4.e-\	.	4B-\	.	4b-\	.	4ee-\	.	4.gg\	.
8AA-/	.	.	8A-\	.	.	.	.	.	.	.	.	.	.	.	.	.	.	.	.	.	.	.	.	.	.	.	.	.	.	.	.	.	.	.	.	.	.	.	.	.
8GG/	.	.	8G\	.	.	.	.	.	.	.	.	.	.	.	.	.	.	.	.	.	.	.	.	.	.	.	4g/	.	.	.	.	.	4G\	.	4b-\	.	4ee-\	.	.	.
8FF/J	.	.	8F\J	.	8G/ 8e-/	.	8B-/ 8g/	.	8g/ 8ee-/	.	.	.	.	.	.	.	.	.	.	.	.	.	8E-\	.	8E-/	.	.	.	8g/	.	8e-\	.	.	.	.	.	.	.	8gg\	.
!	!	!	!LO:LB:g=original	!	!	!	!	!	!	!	!	!	!	!	!	!	!	!	!	!	!	!	!	!	!	!	!	!	!	!	!	!	!	!	!	!	!	!	!	!
=45	=45	=45	=45	=45	=45	=45	=45	=45	=45	=45	=45	=45	=45	=45	=45	=45	=45	=45	=45	=45	=45	=45	=45	=45	=45	=45	=45	=45	=45	=45	=45	=45	=45	=45	=45	=45	=45	=45	=45	=45
*	*	*	*	*	*	*	*	*	*	*	*	*	*	*	*	*	*	*	*	*	*	*	*2\right	*	*	*	*	*	*	*	*2\right	*	*	*	*	*	*	*	*	*
2EE-/	.	.	2E-\	.	2G/ 2e-/	.	2B-/ 2g/	.	2g/ 2ee-/	.	1r	.	.	1r	.	.	1r	.	.	1r	.	.	2E-\	.	2E-/	.	2g/	.	2g/	.	2e-\	.	2G\	.	2b-\	.	2ee-\	.	2gg\	.
2r	.	.	2r	.	2r	.	2r	.	2r	.	.	.	.	.	.	.	.	.	.	.	.	.	2r	.	2r	.	2r	.	2r	.	2r	.	2r	.	2r	.	2r	.	2r	.
==	==	==	==	==	==	==	==	==	==	==	==	==	==	==	==	==	==	==	==	==	==	==	==	==	==	==	==	==	==	==	==	==	==	==	==	==	==	==	==	==
*-	*-	*-	*-	*-	*-	*-	*-	*-	*-	*-	*-	*-	*-	*-	*-	*-	*-	*-	*-	*-	*-	*-	*-	*-	*-	*-	*-	*-	*-	*-	*-	*-	*-	*-	*-	*-	*-	*-	*-	*-
!!!system-decoration: [(s1,s2,s3,s4[(s5)]s6,s7,s8)]s9[(s10,s11,s12,s13,s14,s15,s16,s17,s18)]
!!!RDF**kern: > = above
!!!RDF**kern: < = below
!!!RDF**dynam: < = cres
!!!ENC: Mateusz Solarz
!!!END: 2020-08-07
!!!ENC: Leszek Kubiak
!!!END: 2022-03-11
!!!YEC: Copyright 2022 Narodowy Instytut Fryderyka Chopina (https://polishscores.org)
!!!YEM: License CC-BY-4.0 (https://creativecommons.org/licenses/by/4.0)
